!!!id: 18xx:2056
!!!COM: Stefani, Józef
!!!OTL: Okropność czyli Nowa Lafarge – Introducione
!!!PDT:
!!!OMD:Allegretto
!!!SMS-siglum: PL-Wtm
!!!SMS-shelfmark: R 1664
!!!NIFC-rismID: 1001114328
!!!URL-scan: http://repozytorium.nifc.pl/skany/pl-wtm-nut--r1664
!!!ONB-nifc: UWAGA: skany 0003-0010
!!!SMS-variant:
!!!SMS-altvar:
!!!system-decoration: ({s1,s2},s3,s4,s5,s6,s7,s8,{s9,s10,s11},s12,{s13,s14})
**kern	**dynam	**kern	**dynam	**kern	**dynam	**kern	**dynam	**kern	**dynam	**kern	**dynam	**kern	**dynam	**kern	**dynam	**kern	**dynam	**kern	**dynam	**kern	**dynam	**kern	**dynam	**kern	**dynam	**kern	**dynam
*part14	*part14	*part13	*part13	*part12	*part12	*part11	*part11	*part10	*part10	*part9	*part9	*part8	*part8	*part7	*part7	*part6	*part6	*part5	*part5	*part4	*part4	*part3	*part3	*part2	*part2	*part1	*part1
*staff14	*	*staff13	*	*staff12	*	*staff11	*	*staff10	*	*staff9	*	*staff8	*	*staff7	*	*staff6	*	*staff5	*	*staff4	*	*staff3	*	*staff2	*	*staff1	*
*I"C:Baſsi	*	*I"Violoncelli	*	*I"Viole	*	*I"Violino II.°.	*	*I"Violino I°.	*	*I"Violino Solo	*	*I"in d.a. Timpani	*	*I"Trombone	*	*I"in C Trombe	*	*I"Fagoto	*	*I"Corni in D.	*	*I"in a Clarinetti	*	*I"Oboe	*	*I"Flauto	*
*I'cb	*	*I'vlc	*	*I'vla	*	*I'vl II	*	*I'vl I	*	*I'vl solo	*	*I'timp	*	*I'trb	*	*I'tr in C	*	*I'fag	*	*I'cor in D	*	*I'cl in A	*	*I'ob	*	*I'fl	*
*clefF4	*	*clefF4	*	*clefC3	*	*clefG2	*	*clefG2	*	*clefG2	*	*clefF4	*	*clefF4	*	*clefG2	*	*clefF4	*	*clefG2	*	*clefG2	*	*clefG2	*	*clefG2	*
*>[A, B, B1, B, B2, C]	*	*>[A, B, B1, B, B2, C]	*	*>[A, B, B1, B, B2, C]	*	*>[A, B, B1, B, B2, C]	*	*>[A, B, B1, B, B2, C]	*	*>[A, B, B1, B, B2, C]	*	*>[A, B, B1, B, B2, C]	*	*>[A, B, B1, B, B2, C]	*	*>[A, B, B1, B, B2, C]	*	*>[A, B, B1, B, B2, C]	*	*>[A, B, B1, B, B2, C]	*	*>[A, B, B1, B, B2, C]	*	*>[A, B, B1, B, B2, C]	*	*>[A, B, B1, B, B2, C]	*
*ITrd7c12	*	*	*	*	*	*	*	*	*	*	*	*	*	*	*	*	*	*	*	*ITrd6c10	*	*ITrd2c3	*	*	*	*	*
*k[f#c#]	*	*k[f#c#]	*	*k[f#c#]	*	*k[f#c#]	*	*k[f#c#]	*	*k[f#c#]	*	*k[]	*	*k[f#c#]	*	*k[f#c#]	*	*k[f#c#]	*	*k[f#c#]	*	*k[f#c#]	*	*k[f#c#]	*	*k[f#c#]	*
*M6/8	*	*M6/8	*	*M6/8	*	*M6/8	*	*M6/8	*	*M6/8	*	*M6/8	*	*M6/8	*	*M6/8	*	*M6/8	*	*M6/8	*	*M6/8	*	*M6/8	*	*M6/8	*
=1	=1	=1	=1	=1	=1	=1	=1	=1	=1	=1	=1	=1	=1	=1	=1	=1	=1	=1	=1	=1	=1	=1	=1	=1	=1	=1	=1
*>A	*	*>A	*	*>A	*	*>A	*	*>A	*	*>A	*	*>A	*	*>A	*	*>A	*	*>A	*	*>A	*	*>A	*	*>A	*	*>A	*
*all\right	*	*all\right	*	*all\right	*	*all\right	*	*all\right	*	*all\right	*	*all\right	*	*all\right	*	*all\right	*	*all\right	*	*all\right	*	*all\right	*	*all\right	*	*all\right	*
.	.	.	.	.	.	.	.	.	.	.	.	.	.	.	.	.	.	.	.	.	.	.	f	.	.	.	.
*	*	*	*	*	*	*tremolo	*	*tremolo	*	*tremolo	*	*	*	*	*	*	*	*	*	*	*	*	*	*	*	*	*
!	!	!	!	!	!	!	!	!	!	!	!	!	!	!	!	!	!	!	!	!	!	!	!LO:HP:a	!	!	!	!
!	!LO:DY:rj	!	!	!	!	!	!	!	!	!LO:TX:i:t=Col 1°.	!	!LO:TX:t=P:problem:zamiast znaków 4D/ 4A/	!LO:DY:rj	!	!LO:DY:rj	!	!LO:DY:rj	!	!	!	!LO:DY:rj	!	!LO:DY:rj	!	!	!	!
4.DD\	f <	16DD'/LL	.	16D'/LL	.	32A/LLL	.	32f#/LLL	.	32f#/LLL	.	2.DTT\	f	2.D\	f <	4.f#X/	f <	16DD'/LL	.	2.d/ 2.D/	f	4.f#/ 4.A/	f <	2.r	.	2.r	.
.	.	.	.	.	.	32A/	.	32f#/	.	32f#/	.	.	.	.	.	.	.	.	.	.	.	.	.	.	.	.	.
.	.	(16D/	.	(16d/	.	32A/	.	32f#/	.	32f#/	.	.	.	.	.	.	.	(16D/	.	.	.	.	.	.	.	.	.
.	.	.	.	.	.	32A/	.	32f#/	.	32f#/	.	.	.	.	.	.	.	.	.	.	.	.	.	.	.	.	.
.	.	16C#/	.	16c#/	.	32A/	.	32f#/	.	32f#/	.	.	.	.	.	.	.	16C#/	.	.	.	.	.	.	.	.	.
.	.	.	.	.	.	32A/	.	32f#/	.	32f#/	.	.	.	.	.	.	.	.	.	.	.	.	.	.	.	.	.
.	.	16D/	.	16d/	.	32A/	.	32f#/	.	32f#/	.	.	.	.	.	.	.	16D/	.	.	.	.	.	.	.	.	.
.	.	.	.	.	.	32A/	.	32f#/	.	32f#/	.	.	.	.	.	.	.	.	.	.	.	.	.	.	.	.	.
.	.	16C#/	.	16c#/	.	32A/	.	32f#/	.	32f#/	.	.	.	.	.	.	.	16C#/	.	.	.	.	.	.	.	.	.
.	.	.	.	.	.	32A/	.	32f#/	.	32f#/	.	.	.	.	.	.	.	.	.	.	.	.	.	.	.	.	.
.	.	16D/JJ)	.	16d/JJ)	.	32A/	.	32f#/	.	32f#/	.	.	.	.	.	.	.	16D/JJ)	.	.	.	.	.	.	.	.	.
.	.	.	.	.	.	32A/JJJ	.	32f#/JJJ	.	32f#/JJJ	.	.	.	.	.	.	.	.	.	.	.	.	.	.	.	.	.
*	*	*rep	*	*rep	*	*	*	*	*	*	*	*	*	*	*	*	*	*rep	*	*	*	*	*	*	*	*	*
4.DD\	[	16DD'/LL	.	16D'/LL	.	32B-X/LLL	.	32g/LLL	.	32g/LLL	.	.	.	.	.	4g/	[	16DD'/LL	.	.	<	4gX/ 4B-X/	.	.	.	.	.
.	.	.	.	.	.	32B-/	.	32g/	.	32g/	.	.	.	.	.	.	.	.	.	.	.	.	.	.	.	.	.
.	.	(16D/	.	(16d/	.	32B-/	.	32g/	.	32g/	.	.	.	.	.	.	.	(16D/	.	.	.	.	.	.	.	.	.
.	.	.	.	.	.	32B-/	.	32g/	.	32g/	.	.	.	.	.	.	.	.	.	.	.	.	.	.	.	.	.
*	*	*	*	*	*	*Xtremolo	*	*Xtremolo	*	*Xtremolo	*	*	*	*	*	*	*	*	*	*	*	*	*	*	*	*	*
*	*	*	*	*	*	*tremolo	*	*tremolo	*	*tremolo	*	*	*	*	*	*	*	*	*	*	*	*	*	*	*	*	*
.	.	16C#/	.	16c#/	.	32B-/	.	32g/	.	32g/	.	.	.	.	.	.	.	16C#/	.	.	.	.	.	.	.	.	.
.	.	.	.	.	.	32B-/	.	32g/	.	32g/	.	.	.	.	.	.	.	.	.	.	.	.	.	.	.	.	.
.	.	16D/	.	16d/	.	32B-/	.	32g/	.	32g/	.	.	.	.	.	.	.	16D/	.	.	.	.	.	.	.	.	.
.	.	.	.	.	.	32B-/	.	32g/	.	32g/	.	.	.	.	.	.	.	.	.	.	.	.	.	.	.	.	.
*	*	*	*	*	*	*Xtremolo	*	*Xtremolo	*	*Xtremolo	*	*	*	*	*	*	*	*	*	*	*	*	*	*	*	*	*
*	*	*	*	*	*	*tremolo	*	*tremolo	*	*tremolo	*	*	*	*	*	*	*	*	*	*	*	*	*	*	*	*	*
.	.	16C#/	.	16c#/	.	32G/	.	32e/	.	32e/	.	.	.	.	[	8e/	.	16C#/	.	.	[	8e/ 8GX/	[	.	.	.	.
.	.	.	.	.	.	32G/	.	32e/	.	32e/	.	.	.	.	.	.	.	.	.	.	.	.	.	.	.	.	.
.	.	16D/JJ)	.	16d/JJ)	.	32G/	.	32e/	.	32e/	.	.	.	.	.	.	.	16D/JJ)	.	.	.	.	.	.	.	.	.
.	.	.	.	.	.	32G/JJJ	.	32e/JJJ	.	32e/JJJ	.	.	.	.	.	.	.	.	.	.	.	.	.	.	.	.	.
*	*	*Xrep	*	*Xrep	*	*	*	*	*	*	*	*	*	*	*	*	*	*Xrep	*	*	*	*	*	*	*	*	*
=2	=2	=2	=2	=2	=2	=2	=2	=2	=2	=2	=2	=2	=2	=2	=2	=2	=2	=2	=2	=2	=2	=2	=2	=2	=2	=2	=2
!	!	!	!	!	!	!	!	!	!	!	!	!	!	!	!	!	!	!	!	!	!	!	!LO:HP:a	!	!	!	!
4.DD\	<	16DD'/LL	.	16D'/LL	.	32A/LLL	.	32f#/LLL	.	32f#/LLL	.	2.DTTT\	.	2.D\	<	4.f#X/	<	16DD'/LL	.	2.d/ 2.D/	.	4.f#/ 4.A/	<	2.r	.	2.r	.
.	.	.	.	.	.	32A/	.	32f#/	.	32f#/	.	.	.	.	.	.	.	.	.	.	.	.	.	.	.	.	.
.	.	(16D/	.	(16d/	.	32A/	.	32f#/	.	32f#/	.	.	.	.	.	.	.	(16D/	.	.	.	.	.	.	.	.	.
.	.	.	.	.	.	32A/	.	32f#/	.	32f#/	.	.	.	.	.	.	.	.	.	.	.	.	.	.	.	.	.
.	.	16C#/	.	16c#/	.	32A/	.	32f#/	.	32f#/	.	.	.	.	.	.	.	16C#/	.	.	.	.	.	.	.	.	.
.	.	.	.	.	.	32A/	.	32f#/	.	32f#/	.	.	.	.	.	.	.	.	.	.	.	.	.	.	.	.	.
.	.	16D/	.	16d/	.	32A/	.	32f#/	.	32f#/	.	.	.	.	.	.	.	16D/	.	.	.	.	.	.	.	.	.
.	.	.	.	.	.	32A/	.	32f#/	.	32f#/	.	.	.	.	.	.	.	.	.	.	.	.	.	.	.	.	.
.	.	16C#/	.	16c#/	.	32A/	.	32f#/	.	32f#/	.	.	.	.	.	.	.	16C#/	.	.	.	.	.	.	.	.	.
.	.	.	.	.	.	32A/	.	32f#/	.	32f#/	.	.	.	.	.	.	.	.	.	.	.	.	.	.	.	.	.
.	.	16D/JJ)	.	16d/JJ)	.	32A/	.	32f#/	.	32f#/	.	.	.	.	.	.	.	16D/JJ)	.	.	.	.	.	.	.	.	.
.	.	.	.	.	.	32A/JJJ	.	32f#/JJJ	.	32f#/JJJ	.	.	.	.	.	.	.	.	.	.	.	.	.	.	.	.	.
*	*	*rep	*	*rep	*	*	*	*	*	*	*	*	*	*	*	*	*	*rep	*	*	*	*	*	*	*	*	*
4.DD\	[	16DD'/LL	.	16D'/LL	.	32B-X/LLL	.	32g/LLL	.	32g/LLL	.	.	.	.	.	4g/	[	16DD'/LL	.	.	.	4gnX/ 4B-X/	.	.	.	.	.
.	.	.	.	.	.	32B-/	.	32g/	.	32g/	.	.	.	.	.	.	.	.	.	.	.	.	.	.	.	.	.
.	.	(16D/	.	(16d/	.	32B-/	.	32g/	.	32g/	.	.	.	.	.	.	.	(16D/	.	.	.	.	.	.	.	.	.
.	.	.	.	.	.	32B-/	.	32g/	.	32g/	.	.	.	.	.	.	.	.	.	.	.	.	[	.	.	.	.
*	*	*	*	*	*	*Xtremolo	*	*Xtremolo	*	*Xtremolo	*	*	*	*	*	*	*	*	*	*	*	*	*	*	*	*	*
*	*	*	*	*	*	*tremolo	*	*tremolo	*	*tremolo	*	*	*	*	*	*	*	*	*	*	*	*	*	*	*	*	*
.	.	16C#/	.	16c#/	.	32B-/	.	32g/	.	32g/	.	.	.	.	.	.	.	16C#/	.	.	.	.	.	.	.	.	.
.	.	.	.	.	.	32B-/	.	32g/	.	32g/	.	.	.	.	.	.	.	.	.	.	.	.	.	.	.	.	.
.	.	16D/	.	16d/	.	32B-/	.	32g/	.	32g/	.	.	.	.	.	.	.	16D/	.	.	.	.	.	.	.	.	.
.	.	.	.	.	.	32B-/	.	32g/	.	32g/	.	.	.	.	.	.	.	.	.	.	.	.	.	.	.	.	.
*	*	*	*	*	*	*Xtremolo	*	*Xtremolo	*	*Xtremolo	*	*	*	*	*	*	*	*	*	*	*	*	*	*	*	*	*
*	*	*	*	*	*	*tremolo	*	*tremolo	*	*tremolo	*	*	*	*	*	*	*	*	*	*	*	*	*	*	*	*	*
.	.	16C#/	.	16c#/	.	32G/	.	32e/	.	32e/	.	.	.	.	[	8e/	.	16C#/	.	.	.	8e/ 8GX/	.	.	.	.	.
.	.	.	.	.	.	32G/	.	32e/	.	32e/	.	.	.	.	.	.	.	.	.	.	.	.	.	.	.	.	.
.	.	16D/JJ)	.	16d/JJ)	.	32G/	.	32e/	.	32e/	.	.	.	.	.	.	.	16D/JJ)	.	.	.	.	.	.	.	.	.
.	.	.	.	.	.	32G/JJJ	.	32e/JJJ	.	32e/JJJ	.	.	.	.	.	.	.	.	.	.	.	.	.	.	.	.	.
*	*	*Xrep	*	*Xrep	*	*	*	*	*	*	*	*	*	*	*	*	*	*Xrep	*	*	*	*	*	*	*	*	*
=3	=3	=3	=3	=3	=3	=3	=3	=3	=3	=3	=3	=3	=3	=3	=3	=3	=3	=3	=3	=3	=3	=3	=3	=3	=3	=3	=3
*	*	*	*	*	*	*	*	*	*	*	*	*	*	*	*	*	*	*	*	*^	*	*	*	*	*	*	*
!	!	!	!	!	!	!	!	!	!	!	!	!	!	!	!	!	!	!	!LO:DY:rj	!	!	!LO:DY:rj	!	!	!	!	!	!
8DD\	.	8D\yy	.	8d\	.	8A/	.	8f#/	.	8f#/yy	.	2.r	.	2.r	.	2.r	.	4.D\	p	2.f#/	2.d\	p	4r	.	4r	.	4r	.
8r	.	8ryy	.	8r	.	8r	.	8ra	.	8rayy	.	.	.	.	.	.	.	.	.	.	.	.	.	.	.	.	.	.
8r	.	8ryy	.	8r	.	8r	.	8rg	.	8rgyy	.	.	.	.	.	.	.	.	.	.	.	.	8rf	.	8r	.	8r	.
!	!	!	!	!	!	!	!	!	!	!	!	!	!	!	!	!	!	!	!	!	!	!	!	!	!	!	!	!LO:DY:rj
8BBB/	.	8BB/yy	.	8B/	.	8f#/	.	8dd\	.	8dd\yy	.	.	.	.	.	.	.	4.B\	.	.	.	.	8dd\ 8f#\	.	8ff#\	.	8ddd\	p
8r	.	8rByy	.	8rA	.	8r	.	8ra	.	8rayy	.	.	.	.	.	.	.	.	.	.	.	.	8rg	.	8r	.	8rcc	.
8r	.	8rByy	.	8rA	.	8r	.	8rg	.	8rgyy	.	.	.	.	.	.	.	.	.	.	.	.	8rf	.	8r	.	8rf	.
=4	=4	=4	=4	=4	=4	=4	=4	=4	=4	=4	=4	=4	=4	=4	=4	=4	=4	=4	=4	=4	=4	=4	=4	=4	=4	=4	=4	=4
*	*	*	*	*	*	*	*	*	*	*	*	*	*	*	*	*	*	*	*	*	*	*	*	*	*^	*	*	*
8GGG/	.	8GG/yy	.	8G/	.	8B-X/	.	8e/	.	8e/yy	.	2.r;	.	2.r;	.	2.r;	.	4.G\	.	4.e/	4.d\	.	8dd\ 8b-X\	.	8ee/	8dd\	.	8ee\	.
8rBB	.	8rByy	.	8rA	.	8r	.	8rf	.	8rfyy	.	.	.	.	.	.	.	.	.	.	.	.	8ra	.	8r	8r	.	8r	.
8rBB	.	8rByy	.	8rA	.	8r	.	8rf	.	8rfyy	.	.	.	.	.	.	.	.	.	.	.	.	8rg	.	8r	8r	.	8rf	.
8AAA/	.	8AA/yy	.	8A/	.	8c#/	.	8a/	.	8a/yy	.	.	.	.	.	.	.	8A\	.	8e/ 8A/	8ryy	.	8cc#\ 8a\	.	8aa/	8cc#\	.	8aa\	.
8rBB	.	8rByy	.	8rA	.	8r	.	8re	.	8reyy	.	.	.	.	.	.	.	8rC	.	8r	4ryy	.	8ra	.	8rb	4ryy	.	8r	.
8rBB;	.	8rB;yy	.	8rA;	.	8r;	.	8re;	.	8re;yy	.	.	.	.	.	.	.	8rBB;	.	8r;	.	.	8rg;	.	8ra;	.	.	8r;	.
*	*	*	*	*	*	*	*	*	*	*	*	*	*	*	*	*	*	*	*	*v	*v	*	*	*	*v	*v	*	*	*
=5||	=5||	=5||	=5||	=5||	=5||	=5||	=5||	=5||	=5||	=5||	=5||	=5||	=5||	=5||	=5||	=5||	=5||	=5||	=5||	=5||	=5||	=5||	=5||	=5||	=5||	=5||	=5||
!!LO:PB:g=original
!!!OMD:Allegro modto
*M3/4	*	*M3/4	*	*M3/4	*	*M3/4	*	*M3/4	*	*M3/4	*	*M3/4	*	*M3/4	*	*M3/4	*	*M3/4	*	*M3/4	*	*M3/4	*	*M3/4	*	*M3/4	*
!	!	!	!	!	!	!	!	!	!	!	!LO:DY:a	!	!	!	!	!	!	!	!	!	!	!	!	!	!LO:DY:a	!	!
4AAA/	.	4AAyy/	.	8r	.	8r	.	8r	.	8a'\L	f	8r	.	8r	.	8r	.	8r	.	8r	.	8r	.	8a'\L	f	2.r	.
.	.	.	.	(8A/	.	(8c#/	.	8g/	sfp	(16cc#\L	.	8AA/	.	8AA/	.	8g/ 8e/	.	8AA/	sf	8e\ 8A\	.	8a/ 8c#/	sf	(16cc#\L	.	.	.
.	.	.	.	.	.	.	.	.	.	16ee\JJ	.	.	.	.	.	.	.	.	.	.	.	.	.	16ee\JJ	.	.	.
*	*	*	*	*tremolo	*	*	*	*	*	*	*	*	*	*	*	*	*	*	*	*	*	*	*	*	*	*	*
!	!	!	!	!LO:TX:t=P:problem:4 kropki art. pod łukiem	!	!LO:TX:t=P:problem:4 kropki art. pod łukiem	!	!	!	!	!	!	!	!	!	!	!	!	!	!	!	!	!	!	!	!	!
4r	.	4ryy	.	8A'/L	.	8c#'/L	.	8g/L	.	4.gg\)	.	4r	.	4r	.	4r	.	4r	.	4r	.	4r	.	4.gg\)	.	.	.
.	.	.	.	8A'/	.	8c#'/	.	8g/	.	.	.	.	.	.	.	.	.	.	.	.	.	.	.	.	.	.	.
4r	.	4ryy	.	8A'/	.	8c#'/	.	8g/	.	.	.	4r	.	4r	.	4r	.	4r	.	4r	.	4r	.	.	.	.	.
.	.	.	.	8A'/J)	.	8c#'/J)	.	8g/J	.	8cc#\	.	.	.	.	.	.	.	.	.	.	.	.	.	8cc#\	.	.	.
=6	=6	=6	=6	=6	=6	=6	=6	=6	=6	=6	=6	=6	=6	=6	=6	=6	=6	=6	=6	=6	=6	=6	=6	=6	=6	=6	=6
!	!	!	!	!	!	!	!	!	!	!	!	!	!	!	!	!	!	!	!	!	!	!	!	!LO:TX:a:t=Col V°.Solo	!	!	!
4DD\	.	4D\yy	.	8r	.	8r	.	8r	.	(16ee\LL	.	2.r	.	2.r	.	2.r	.	2.r	.	2.r	.	2.r	.	(>16ee\LLyy	.	2.r	.
.	.	.	.	.	.	.	.	.	.	16dd\	.	.	.	.	.	.	.	.	.	.	.	.	.	16dd\yy	.	.	.
.	.	.	.	8A/	.	8d/	.	8f#/	.	16cc#\	.	.	.	.	.	.	.	.	.	.	.	.	.	16cc#\yy	.	.	.
.	.	.	.	.	.	.	.	.	.	16dd\JJ	.	.	.	.	.	.	.	.	.	.	.	.	.	16dd\JJyy	.	.	.
4r	.	4ryy	.	8A/L	.	8d/L	.	8f#/L	.	4.a/)	.	.	.	.	.	.	.	.	.	.	.	.	.	4.a/)yy	.	.	.
.	.	.	.	8A/	.	8d/	.	8f#/	.	.	.	.	.	.	.	.	.	.	.	.	.	.	.	.	.	.	.
4r	.	4ryy	.	8A/	.	8d/	.	8f#/	.	.	.	.	.	.	.	.	.	.	.	.	.	.	.	.	.	.	.
.	.	.	.	8A/J	.	8d/J	.	8f#/J	.	8a/	.	.	.	.	.	.	.	.	.	.	.	.	.	8a/yy	.	.	.
=7	=7	=7	=7	=7	=7	=7	=7	=7	=7	=7	=7	=7	=7	=7	=7	=7	=7	=7	=7	=7	=7	=7	=7	=7	=7	=7	=7
4AAA/	.	4AAyy/	.	8r	.	8r	.	8r	.	(16g#X\LL	.	8r	.	8r	.	8r	.	8r	.	8r	.	8r	.	(16g#X\LLyy	.	2.r	.
.	.	.	.	.	.	.	.	.	.	16a\	.	.	.	.	.	.	.	.	.	.	.	.	.	16a\yy	.	.	.
.	.	.	.	8A/	.	8c#/	.	8g/	sfp	16cc#\	.	8AA/	.	8AA/	.	8g/ 8e/	sf	8AA/	sf	8e\ 8A\	.	8a/ 8c#/	sf	16cc#\yy	.	.	.
.	.	.	.	.	.	.	.	.	.	16ee\JJ	.	.	.	.	.	.	.	.	.	.	.	.	.	16ee\JJyy	.	.	.
4r	.	4ryy	.	8A/L	.	8c#/L	.	8g/L	.	4.gg\)	.	4r	.	4r	.	4r	.	4r	.	4r	.	4r	.	4.gg\)yy	.	.	.
.	.	.	.	8A/	.	8c#/	.	8g/	.	.	.	.	.	.	.	.	.	.	.	.	.	.	.	.	.	.	.
4r	.	4ryy	.	8A/	.	8c#/	.	8g/	.	.	.	4r	.	4r	.	4r	.	4r	.	4r	.	4r	.	.	.	.	.
.	.	.	.	8A/J	.	8c#/J	.	8g/J	.	8cc#\	.	.	.	.	.	.	.	.	.	.	.	.	.	8cc#\yy	.	.	.
=8	=8	=8	=8	=8	=8	=8	=8	=8	=8	=8	=8	=8	=8	=8	=8	=8	=8	=8	=8	=8	=8	=8	=8	=8	=8	=8	=8
4DD\	.	4D\yy	.	8r	.	8r	.	8r	.	(16ee\LL	.	2.r	.	2.r	.	2.r	.	2.r	.	2.r	.	2.r	.	(16ee\LLyy	.	2.r	.
.	.	.	.	.	.	.	.	.	.	16dd\	.	.	.	.	.	.	.	.	.	.	.	.	.	16dd\yy	.	.	.
.	.	.	.	8A/	.	8d/	.	8f#/	.	16cc#\	.	.	.	.	.	.	.	.	.	.	.	.	.	16cc#\yy	.	.	.
.	.	.	.	.	.	.	.	.	.	16dd\JJ	.	.	.	.	.	.	.	.	.	.	.	.	.	16dd\JJyy	.	.	.
4r	.	4ryy	.	8A/L	.	8d/L	.	8f#/L	.	16cc#\LL	.	.	.	.	.	.	.	.	.	.	.	.	.	16cc#\LLyy	.	.	.
.	.	.	.	.	.	.	.	.	.	16dd\	.	.	.	.	.	.	.	.	.	.	.	.	.	16dd\yy	.	.	.
.	.	.	.	8A/	.	8d/	.	8f#/	.	16ff#\	.	.	.	.	.	.	.	.	.	.	.	.	.	16ff#\yy	.	.	.
.	.	.	.	.	.	.	.	.	.	16dd\JJ	.	.	.	.	.	.	.	.	.	.	.	.	.	16dd\JJyy	.	.	.
4r	.	4ryy	.	8A/	.	8d/	.	8f#/	.	8a/)	.	.	.	.	.	.	.	.	.	.	.	.	.	8a/)yy	.	.	.
.	.	.	.	8A/J	.	8d/J	.	8f#/J	.	16r	.	.	.	.	.	.	.	.	.	.	.	.	.	16ryy	.	.	.
.	.	.	.	.	.	.	.	.	.	16a/	.	.	.	.	.	.	.	.	.	.	.	.	.	16a/yy	.	.	.
=9	=9	=9	=9	=9	=9	=9	=9	=9	=9	=9	=9	=9	=9	=9	=9	=9	=9	=9	=9	=9	=9	=9	=9	=9	=9	=9	=9
!!LO:PB:g=original
!	!	!	!	!	!	!	!	!	!	!LO:TX:t=P:problem:mixedbeam	!	!	!	!	!	!	!	!	!	!	!LO:DY:rj	!	!	!LO:TX:t=P:problem:mixedbeam	!	!	!
8DD\	.	8Dyy\	.	8r	.	8r	.	8r	.	16dd'\LL	.	2.r	.	2.r	.	2.r	.	[2.D\	.	[2.f#\ [>2.A\	p	2.ryy	.	16dd'/LLyy	.	2.ryy	.
.	.	.	.	.	.	.	.	.	.	16d'/	.	.	.	.	.	.	.	.	.	.	.	.	.	16d'/yy	.	.	.
8r	.	8ryy	.	8A/	.	8d/	.	8f#/	.	16e'/	.	.	.	.	.	.	.	.	.	.	.	.	.	16e'/yy	.	.	.
.	.	.	.	.	.	.	.	.	.	16f#'/JJ	.	.	.	.	.	.	.	.	.	.	.	.	.	16f#'/JJyy	.	.	.
*rep	*	*rep	*	*rep	*	*rep	*	*rep	*	*	*	*	*	*	*	*	*	*	*	*	*	*	*	*	*	*	*
8DD\	.	8Dyy\	.	8r	.	8r	.	8r	.	16g'/LL	.	.	.	.	.	.	.	.	.	.	.	.	.	16g'/LLyy	.	.	.
.	.	.	.	.	.	.	.	.	.	16a'/	.	.	.	.	.	.	.	.	.	.	.	.	.	16a'/yy	.	.	.
8r	.	8ryy	.	8A/	.	8d/	.	8f#/	.	16b'/	.	.	.	.	.	.	.	.	.	.	.	.	.	16b'/yy	.	.	.
.	.	.	.	.	.	.	.	.	.	16cc#'/JJ	.	.	.	.	.	.	.	.	.	.	.	.	.	16cc#'/JJyy	.	.	.
*Xrep	*	*Xrep	*	*Xrep	*	*Xrep	*	*Xrep	*	*	*	*	*	*	*	*	*	*	*	*	*	*	*	*	*	*	*
*rep	*	*rep	*	*rep	*	*rep	*	*rep	*	*	*	*	*	*	*	*	*	*	*	*	*	*	*	*	*	*	*
8DD\	.	8Dyy\	.	8r	.	8r	.	8r	.	16dd'\LL	.	.	.	.	.	.	.	.	.	.	.	.	.	16dd'\LLyy	.	.	.
.	.	.	.	.	.	.	.	.	.	16ee'\	.	.	.	.	.	.	.	.	.	.	.	.	.	16ee'\yy	.	.	.
8r	.	8ryy	.	8A/	.	8d/	.	8f#/	.	16ff#'\	.	.	.	.	.	.	.	.	.	.	.	.	.	16ff#'\yy	.	.	.
.	.	.	.	.	.	.	.	.	.	16gg'\JJ	.	.	.	.	.	.	.	.	.	.	.	.	.	16gg'\JJyy	.	.	.
*Xrep	*	*Xrep	*	*Xrep	*	*Xrep	*	*Xrep	*	*	*	*	*	*	*	*	*	*	*	*	*	*	*	*	*	*	*
=10	=10	=10	=10	=10	=10	=10	=10	=10	=10	=10	=10	=10	=10	=10	=10	=10	=10	=10	=10	=10	=10	=10	=10	=10	=10	=10	=10
8DD\	<	8D\yy	<	8r	<	8r	.	8r	.	(16aa\LL	.	2.r	.	2.r	.	2.r	.	2D\]	.	2f#\] 2A\]	.	2.ryy	.	(16aa\LLyy	.	2.ryy	.
.	.	.	.	.	.	.	.	.	.	16gg\)	.	.	.	.	.	.	.	.	.	.	.	.	.	16gg\)yy	.	.	.
8r	.	8ryy	.	8A/	.	8d/	.	8f#/	.	16ff#'\	.	.	.	.	.	.	.	.	.	.	.	.	.	16ff#'\yy	.	.	.
.	.	.	.	.	.	.	.	.	.	16ee'\JJ	.	.	.	.	.	.	.	.	.	.	.	.	.	16ee'\JJyy	.	.	.
*	*	*	*	*rep	*	*rep	*	*	*	*	*	*	*	*	*	*	*	*	*	*	*	*	*	*	*	*	*
8DD\	.	8D\yy	.	8r	.	8r	.	8r	.	(16ff#\LL	.	.	.	.	.	.	.	.	.	.	<	.	.	(16ff#\LLyy	.	.	.
.	.	.	.	.	.	.	.	.	.	16ee\)	.	.	.	.	.	.	.	.	.	.	.	.	.	16ee\)yy	.	.	.
8r	.	8ryy	.	8A/	.	8d/	.	8f#/	.	16dd'\	.	.	.	.	.	.	.	.	.	.	.	.	.	16dd'\yy	.	.	.
.	.	.	.	.	.	.	.	.	.	16cc#'\JJ	.	.	.	.	.	.	.	.	.	.	.	.	.	16cc#'\JJyy	.	.	.
*	*	*	*	*Xrep	*	*Xrep	*	*	*	*	*	*	*	*	*	*	*	*	*	*	*	*	*	*	*	*	*
*	*	*	*	*rep	*	*rep	*	*	*	*	*	*	*	*	*	*	*	*	*	*	*	*	*	*	*	*	*
8FF#\	.	8F#\yy	.	8r	.	8r	.	8r	.	(16dd\LL	.	.	.	.	.	.	.	4F#\	.	4d/ 4A/	.	.	.	(16dd\LLyy	.	.	.
.	.	.	.	.	.	.	.	.	.	16cc#\)	.	.	.	.	.	.	.	.	.	.	.	.	.	16cc#\)yy	.	.	.
8r	[	8ryy	[	8A/	[	8d/	.	8a/	.	16b'\	.	.	.	.	.	.	.	.	.	.	.	.	.	16b'\yy	.	.	.
.	.	.	.	.	.	.	.	.	.	16a'\JJ	.	.	.	.	.	.	.	.	.	.	.	.	.	16a'\JJyy	.	.	.
*	*	*	*	*Xrep	*	*Xrep	*	*	*	*	*	*	*	*	*	*	*	*	*	*	*	*	*	*	*	*	*
=11	=11	=11	=11	=11	=11	=11	=11	=11	=11	=11	=11	=11	=11	=11	=11	=11	=11	=11	=11	=11	=11	=11	=11	=11	=11	=11	=11
*	*	*	*	*	*	*	*	*	*	*	*	*	*	*	*	*	*	*	*	*^	*	*	*	*	*	*	*
*	*	*	*	*Xtremolo	*	*Xtremolo	*	*Xtremolo	*	*	*	*	*	*	*	*	*	*	*	*	*	*	*	*	*	*	*	*
4GG\	.	4G\yy	.	8r	.	8r	.	8r	.	8b'\L	.	4r	.	4r	.	4r	.	(2G\	.	(2e/	2d\	.	2.ryy	.	8b'\Lyy	.	2.ryy	.
.	.	.	.	8G/L	.	8d/L	.	8b/L	.	16cc#'\L	.	.	.	.	.	.	.	.	.	.	.	.	.	.	16cc#'\Lyy	.	.	.
.	.	.	.	.	.	.	.	.	.	16dd'\JJ	.	.	.	.	.	.	.	.	.	.	.	[	.	.	16dd'\JJyy	.	.	.
4r	.	4ryy	.	8G/	.	8d/	.	8b/	.	16ee'\LL	.	4r	.	4r	.	4r	.	.	.	.	.	.	.	.	16ee'\LLyy	.	.	.
.	.	.	.	.	.	.	.	.	.	16ff#'\	.	.	.	.	.	.	.	.	.	.	.	.	.	.	16ff#'\yy	.	.	.
.	.	.	.	8G/J	.	8d/J	.	8b/J	.	16gg'\	.	.	.	.	.	.	.	.	.	.	.	.	.	.	16gg'\yy	.	.	.
.	.	.	.	.	.	.	.	.	.	16aa'\JJ	.	.	.	.	.	.	.	.	.	.	.	.	.	.	16aa'\JJyy	.	.	.
4GG#X\	.	4G#X\yy	.	8r	.	8r	.	8r	.	16bb'\KL	.	4D\T	.	4G#X\	.	4b\	.	4G#X\)	.	4fX/)	4d\	.	.	.	16bb'\KLyy	.	.	.
.	.	.	.	.	.	.	.	.	.	8ccc#'^<\	.	.	.	.	.	.	.	.	.	.	.	.	.	.	8ccc#'\yy	.	.	.
.	.	.	.	8Bn/ 8G#X/	.	8fn/	.	8b/ 8d/	.	.	.	.	.	.	.	.	.	.	.	.	.	.	.	.	.	.	.	.
.	.	.	.	.	.	.	.	.	.	16ddd'\Jk	.	.	.	.	.	.	.	.	.	.	.	.	.	.	16ddd'\Jkyy	.	.	.
=12	=12	=12	=12	=12	=12	=12	=12	=12	=12	=12	=12	=12	=12	=12	=12	=12	=12	=12	=12	=12	=12	=12	=12	=12	=12	=12	=12	=12
8AA\	.	8A\yy	.	8r	.	8r	.	8r	.	16ddd'\LL	.	4AA/	.	4A\	.	4a\	.	2.A\	.	2.f#X/	2.d\	.	2.ryy	.	16ddd'\LLyy	.	2.ryy	.
.	.	.	.	.	.	.	.	.	.	(16ff#\	.	.	.	.	.	.	.	.	.	.	.	.	.	.	(16ff#\yy	.	.	.
8r	.	8ryy	.	8A/	.	8f#X/	.	8a/ 8d/	.	16gg\	.	.	.	.	.	.	.	.	.	.	.	.	.	.	16gg\yy	.	.	.
.	.	.	.	.	.	.	.	.	.	16gg#X\JJ	.	.	.	.	.	.	.	.	.	.	.	.	.	.	16gg#X\JJyy	.	.	.
*	*	*	*	*rep	*	*	*	*	*	*	*	*	*	*	*	*	*	*	*	*	*	*	*	*	*	*	*	*
8AA\	.	8A\yy	.	8r	.	8r	.	8r	.	16aa\LL)	.	4r	.	4r	.	4r	.	.	.	.	.	.	.	.	16aa\LL)yy	.	.	.
.	.	.	.	.	.	.	.	.	.	(16aa|\	.	.	.	.	.	.	.	.	.	.	.	.	.	.	(16aa|\yy	.	.	.
8r	.	8ryy	.	8A/	.	8d/	.	8f#/	.	16bb\	.	.	.	.	.	.	.	.	.	.	.	.	.	.	16bb\yy	.	.	.
.	.	.	.	.	.	.	.	.	.	16ccc#\JJ)	.	.	.	.	.	.	.	.	.	.	.	.	.	.	16ccc#\JJ)yy	.	.	.
*	*	*	*	*Xrep	*	*	*	*	*	*	*	*	*	*	*	*	*	*	*	*	*	*	*	*	*	*	*	*
*	*	*	*	*rep	*	*	*	*	*	*	*	*	*	*	*	*	*	*	*	*	*	*	*	*	*	*	*	*
8AA\	.	8A\yy	.	8r	.	8r	.	8r	.	(16eee\LL	.	4r	.	4r	.	4r	.	.	.	.	.	.	.	.	(16eee\LLyy	.	.	.
.	.	.	.	.	.	.	.	.	.	16ddd\)	.	.	.	.	.	.	.	.	.	.	.	.	.	.	16ddd\)yy	.	.	.
8r	.	8ryy	.	8A/	.	8d/	.	8f#/	.	16aa'\	.	.	.	.	.	.	.	.	.	.	.	.	.	.	16aa'\yy	.	.	.
.	.	.	.	.	.	.	.	.	.	16ff#'\JJ	.	.	.	.	.	.	.	.	.	.	.	.	.	.	16ff#'\JJyy	.	.	.
*	*	*	*	*Xrep	*	*	*	*	*	*	*	*	*	*	*	*	*	*	*	*	*	*	*	*	*	*	*	*
=13	=13	=13	=13	=13	=13	=13	=13	=13	=13	=13	=13	=13	=13	=13	=13	=13	=13	=13	=13	=13	=13	=13	=13	=13	=13	=13	=13	=13
!!LO:PB:g=original
*tremolo	*	*tremolo	*	*tremolo	*	*tremolo	*	*tremolo	*	*	*	*	*	*	*	*	*	*	*	*	*	*	*	*	*	*	*	*
!	!LO:DY:rj	!	!LO:DY:rj	!	!	!	!LO:DY:rj	!	!LO:DY:rj	!	!	!	!	!	!	!	!	!	!	!	!	!	!	!	!	!	!	!
8GG\L	sfp	8G\Lyy	sfp	8G/L	.	8B-X/L	sfp	8e/L 8d/	sfp	2.eeTT\	.	2.r	.	2.r	.	2.r	.	2.G\	.	2.e/	2.d\	fp	2.r	.	2.eeTT\yy	.	2.r	.
8GG\	.	8G\yy	.	8G/	.	8B-/	.	8e/ 8d/	.	.	.	.	.	.	.	.	.	.	.	.	.	.	.	.	.	.	.	.
8GG\	.	8G\yy	.	8G/	.	8B-/	.	8e/ 8d/	.	.	.	.	.	.	.	.	.	.	.	.	.	.	.	.	.	.	.	.
8GG\	.	8G\yy	.	8G/	.	8B-/	.	8e/ 8d/	.	.	.	.	.	.	.	.	.	.	.	.	.	.	.	.	.	.	.	.
8GG\	.	8G\yy	.	8G/	.	8B-/	.	8e/ 8d/	.	.	.	.	.	.	.	.	.	.	.	.	.	.	.	.	.	.	.	.
8GG\J	.	8G\Jyy	.	8G/J	.	8B-/J	.	8e/J 8d/	.	.	.	.	.	.	.	.	.	.	.	.	.	.	.	.	.	.	.	.
.	.	.	.	.	.	.	.	.	.	16qqdd#X/LL	.	.	.	.	.	.	.	.	.	.	.	.	.	.	16qqdd#X/LLyy	.	.	.
.	.	.	.	.	.	.	.	.	.	16qqee/JJ	.	.	.	.	.	.	.	.	.	.	.	.	.	.	16qqee/JJyy	.	.	.
=14	=14	=14	=14	=14	=14	=14	=14	=14	=14	=14	=14	=14	=14	=14	=14	=14	=14	=14	=14	=14	=14	=14	=14	=14	=14	=14	=14	=14
.	.	.	.	.	.	.	.	.	.	(8qgg#X/	.	.	.	.	.	.	.	.	.	.	.	.	.	.	(8qgg#X/yy	.	.	.
8AA\L	.	8A\Lyy	.	8A/L	.	8A/L	.	8a/L 8c#/	.	2aaTT\)	.	2.r	.	2.r	.	4r	.	2A\	.	2.e/	2.c#\	.	2.r	.	2aaTT\)yy	.	4r	.
8AA\	<	8A\yy	<	8A/	.	8A/	.	8a/ 8c#/	.	.	.	.	.	.	.	.	.	.	.	.	.	.	.	.	.	.	.	.
8AA\	.	8A\yy	.	8A/	.	8A/	.	8a/ 8c#/	.	.	.	.	.	.	.	4r	.	.	.	.	.	.	.	.	.	.	4r	.
*	*	*	*	*	*	*Xtremolo	*	*	*	*	*	*	*	*	*	*	*	*	*	*	*	*	*	*	*	*	*	*
8AA\J	.	8A\Jyy	.	8A/	.	8A/J	.	8a/ 8c#/	.	.	.	.	.	.	.	.	.	.	.	.	.	.	.	.	.	.	.	.
*Xtremolo	*	*Xtremolo	*	*	*	*	*	*	*	*	*	*	*	*	*	*	*	*	*	*	*	*	*	*	*	*	*	*
8AAA/L	.	8AA/Lyy	.	8A/	.	8g/L 8A/	.	8a/ 8c#/	.	(16gg#X\LL	.	.	.	.	.	(<16g#X/LL	.	4AA/	.	.	.	.	.	.	(16gg#X\LLyy	.	(16gg#X\LL	<
.	.	.	.	.	.	.	.	.	.	16aa\	.	.	.	.	.	16a/	.	.	.	.	.	.	.	.	16aa\yy	.	16aa\	.
8AAA/J	[	8AA/Jyy	[	8A/J	.	8g/J 8A/	.	8a/J 8c#/	.	16bb\	.	.	.	.	.	16b/	.	.	.	.	.	.	.	.	16bb\yy	.	16bb\	.
.	.	.	.	.	.	.	.	.	.	16ccc#\JJ	.	.	.	.	.	16cc#/JJ	.	.	.	.	.	.	.	.	16ccc#\JJyy	.	16ccc#\JJ	[
*	*	*	*	*	*	*	*	*	*	*	*	*	*	*	*	*	*	*	*	*v	*v	*	*	*	*	*	*	*
=15	=15	=15	=15	=15	=15	=15	=15	=15	=15	=15	=15	=15	=15	=15	=15	=15	=15	=15	=15	=15	=15	=15	=15	=15	=15	=15	=15
*	*	*	*	*	*	*tremolo	*	*	*	*	*	*	*	*	*	*	*	*	*	*	*	*	*	*	*	*	*
!	!LO:DY:rj	!	!LO:DY:rj	!	!LO:DY:rj	!	!	!	!	!	!LO:DY:rj	!	!	!	!LO:DY:rj	!	!	!	!LO:DY:rj	!	!	!	!LO:DY:rj	!	!	!	!LO:DY:rj
8BBB-X'/L	f	8BB-X'/Lyy	f	8B-X\L	f	16fn/L 16B-X/	.	16dd/L 16d/	.	16ddd\L)	f	8D\L	.	4.BB-X/	f	8dd\L)	.	8BB-X'/L	f	4.fX\ 4.d\	.	4.ffX\ 4.dd\	f	4.ddd\)	.	4.ddd\)	f
.	.	.	.	.	.	16f/ 16B-/	.	16dd/ 16d/	.	16ddd\	.	.	.	.	.	.	.	.	.	.	.	.	.	.	.	.	.
(16DD/L	.	(<16D/Lyy	.	(16d\L	.	16f/ 16B-/	.	16dd/ 16d/	.	16ddd\	.	16D\L	.	.	.	16dd\L	.	(16D/L	.	.	.	.	.	.	.	.	.
16FF#/JJ	.	16F#/JJyy	.	16fn\JJ	.	16f/J 16B-/	.	16dd/J 16d/	.	16ddd\J	.	16D/JJ	.	.	.	16dd\JJ	.	16Fn/JJ	.	.	.	.	.	.	.	.	.
8BBB-/)	.	8BB-/)yy	.	8B-\)	.	8f/ 8B-/	.	8dd/ 8d/	.	8ddd\	.	8D\	.	.	.	8dd\	.	8BB-/)	.	.	.	.	.	.	.	.	.
8r	.	8ryy	.	8r	.	(16d/LL	.	(16dd\LL	.	(16dd\LL	.	8r	.	8r	.	8r	.	8r	.	8r	.	8r	.	8r	.	8r	.
.	.	.	.	.	.	16e/JJ	.	16ee\JJ	.	16ee\JJ	.	.	.	.	.	.	.	.	.	.	.	.	.	.	.	.	.
4r	.	4ryy	.	4r	.	8fn/L)	.	8ffn\L)	.	8ffn\L)	.	4r	.	4r	.	4r	.	4r	.	4r	.	4r	.	4r	.	4r	.
.	.	.	.	.	.	8d'/J	.	8dd'\J	.	8dd'\J	.	.	.	.	.	.	.	.	.	.	.	.	.	.	.	.	.
=16	=16	=16	=16	=16	=16	=16	=16	=16	=16	=16	=16	=16	=16	=16	=16	=16	=16	=16	=16	=16	=16	=16	=16	=16	=16	=16	=16
*	*	*	*	*	*	*	*	*	*	*	*	*rep	*	*	*	*	*	*	*	*	*	*	*	*	*	*	*
8AAA'/L	.	8AA'/Lyy	.	8A'\L	.	16fn/L 16A/	.	16dd/L 16d/	.	16ddd\L 16dd\	.	8D\L	.	4.AA/	.	8dd\L	.	8AA'/L	.	4.fX\ 4.d\	.	4.ffX\ 4.dd\	.	4.ddd\	.	4.ddd\	.
.	.	.	.	.	.	16f/ 16A/	.	16dd/ 16d/	.	16ddd\ 16dd\	.	.	.	.	.	.	.	.	.	.	.	.	.	.	.	.	.
(16DD/L	.	(<16D/Lyy	.	(16d\L	.	16f/ 16A/	.	16dd/ 16d/	.	16ddd\ 16dd\	.	16D\L	.	.	.	16dd\L	.	(16D/L	.	.	.	.	.	.	.	.	.
16FF/JJ	.	16Fn/JJyy	.	16fn\JJ	.	16f/J 16A/	.	16dd/J 16d/	.	16ddd\J 16dd\	.	16D\JJ	.	.	.	16dd\JJ	.	16Fn/JJ	.	.	.	.	.	.	.	.	.
8AAA/)	.	8AA/)yy	.	8A/)	.	8f/ 8A/	.	8dd/ 8d/	.	8ddd\ 8dd\	.	8D\	.	.	.	8dd\	.	8AA/)	.	.	.	.	.	.	.	.	.
8r	.	8ryy	.	8r	.	16d/LL	.	(16dd\LL	.	(16dd\LL	.	8r	.	8r	.	8r	.	8r	.	8r	.	8r	.	8r	.	8r	.
.	.	.	.	.	.	16e/JJ	.	16ee\JJ	.	16ee\JJ	.	.	.	.	.	.	.	.	.	.	.	.	.	.	.	.	.
4r	.	4ryy	.	4r	.	8fn/L	.	8ffn\L)	.	8ffn\L)	.	4r	.	4r	.	4r	.	4r	.	4r	.	4r	.	4r	.	4r	.
.	.	.	.	.	.	8d/J	.	8dd'\J	.	8dd'\J	.	.	.	.	.	.	.	.	.	.	.	.	.	.	.	.	.
*	*	*	*	*	*	*	*	*	*	*	*	*Xrep	*	*	*	*	*	*	*	*	*	*	*	*	*	*	*
=17	=17	=17	=17	=17	=17	=17	=17	=17	=17	=17	=17	=17	=17	=17	=17	=17	=17	=17	=17	=17	=17	=17	=17	=17	=17	=17	=17
*	*	*	*	*	*	*	*	*rep	*	*rep	*	*rep	*	*	*	*	*	*	*	*	*	*	*	*	*	*	*
8GGG#X'/L	.	8GG#X'/Lyy	.	8G#X'\L	.	16b/L 16fn/	.	16dd/L 16d/	.	16ddd\L 16dd\	.	8D\L	.	4.GG#X/	.	4.b\	.	8GG#X/L	.	4.fX\ 4.d\	.	4.ffX\ 4.dd\	.	4.ddd\	.	4.ddd\	.
.	.	.	.	.	.	16b/ 16f/	.	16dd/ 16d/	.	16ddd\ 16dd\	.	.	.	.	.	.	.	.	.	.	.	.	.	.	.	.	.
(16DD/L	.	(<16D/Lyy	.	(16d\L	.	16b/ 16f/	.	16dd/ 16d/	.	16ddd\ 16dd\	.	16D\L	.	.	.	.	.	16D/L	.	.	.	.	.	.	.	.	.
16FF/JJ	.	16Fn/JJyy	.	16fn\JJ	.	16b/J 16f/	.	16dd/J 16d/	.	16ddd\J 16dd\	.	16D\JJ	.	.	.	.	.	16Fn/JJ	.	.	.	.	.	.	.	.	.
8GGG#/)	.	8GG#/)yy	.	8G#/)	.	8b/ 8f/	.	8dd/ 8d/	.	8ddd\ 8dd\	.	8D\	.	.	.	.	.	8GG#/	.	.	.	.	.	.	.	.	.
8r	.	8ryy	.	8r	.	(16d/LL	.	(16dd\LL	.	(16dd\LL	.	8r	.	8r	.	8r	.	8r	.	8r	.	8r	.	8r	.	8r	.
.	.	.	.	.	.	16e/JJ	.	16ee\JJ	.	16ee\JJ	.	.	.	.	.	.	.	.	.	.	.	.	.	.	.	.	.
4r	.	4ryy	.	4r	.	8fn/L)	.	8ffn\L)	.	8ffn\L)	.	4r	.	4r	.	4r	.	4r	.	4r	.	4r	.	4r	.	4r	.
.	.	.	.	.	.	8d'/J	.	8dd'\J	.	8dd'\J	.	.	.	.	.	.	.	.	.	.	.	.	.	.	.	.	.
*	*	*	*	*	*	*	*	*Xrep	*	*Xrep	*	*Xrep	*	*	*	*	*	*	*	*	*	*	*	*	*	*	*
=18	=18	=18	=18	=18	=18	=18	=18	=18	=18	=18	=18	=18	=18	=18	=18	=18	=18	=18	=18	=18	=18	=18	=18	=18	=18	=18	=18
!!LO:PB:g=original
!LO:TX:b:i:t=pizz	!	!LO:TX:b:i:t=pizz	!	!	!	!	!	!LO:TX:t=P:problem:6 kropek art. pod lukiem	!	!	!	!	!	!	!	!	!	!	!	!	!	!	!	!LO:TX:t=col V°. 1° Solo	!	!	!
4AAA/	.	4AA/yy	.	8e\L 8A\	p	8c#/L	.	(8a'/L	p	(16gg#X^<\LL	.	2.r	.	2.r	.	2.r	.	2.r	.	2.r	.	2.r	.	(16gg#X^<\LLyy	.	2.r	.
.	.	.	.	.	.	.	.	.	.	16aa\)	.	.	.	.	.	.	.	.	.	.	.	.	.	16aa\)yy	.	.	.
.	.	.	.	8e\ 8A\	.	8c#/	.	8a'/	.	16ee'\	.	.	.	.	.	.	.	.	.	.	.	.	.	16ee'\yy	.	.	.
.	.	.	.	.	.	.	.	.	.	16cc#'\JJ	.	.	.	.	.	.	.	.	.	.	.	.	.	16cc#'\JJyy	.	.	.
4AA\	.	4A\yy	.	8e\ 8A\	.	8c#/	.	8a'/	.	4..a/	.	.	.	.	.	.	.	.	.	.	.	.	.	4..a/yy	.	.	.
.	.	.	.	8e\ 8A\	.	8c#/	.	8a'/	.	.	.	.	.	.	.	.	.	.	.	.	.	.	.	.	.	.	.
4r	.	4ryy	.	8e\ 8A\	.	8c#/	.	8a'/	.	.	.	.	.	.	.	.	.	.	.	.	.	.	.	.	.	.	.
.	.	.	.	8e\J 8A\	.	8c#/J	.	8a'/J)	.	.	.	.	.	.	.	.	.	.	.	.	.	.	.	.	.	.	.
.	.	.	.	.	.	.	.	.	.	16aa\	.	.	.	.	.	.	.	.	.	.	.	.	.	16aa\yy	.	.	.
=19	=19	=19	=19	=19	=19	=19	=19	=19	=19	=19	=19	=19	=19	=19	=19	=19	=19	=19	=19	=19	=19	=19	=19	=19	=19	=19	=19
*	*	*	*	*rep	*	*	*	*	*	*	*	*	*	*	*	*	*	*	*	*	*	*	*	*	*	*	*
4AAA/	.	4AA/yy	.	8e\L 8A\	.	8e/L	.	8g/L	.	(16aa^<\LL	.	2.r	.	2.r	.	2.r	.	2.r	.	2.r	.	2.r	.	(16aa^<\LLyy	.	2.r	.
.	.	.	.	.	.	.	.	.	.	16bb-X\)	.	.	.	.	.	.	.	.	.	.	.	.	.	16bb-X\)yy	.	.	.
.	.	.	.	8e\ 8A\	.	8e/	.	8g/	.	16gg'\	.	.	.	.	.	.	.	.	.	.	.	.	.	16gg'\yy	.	.	.
.	.	.	.	.	.	.	.	.	.	16ee'\JJ	.	.	.	.	.	.	.	.	.	.	.	.	.	16ee'\JJyy	.	.	.
4AA\	.	4A\yy	.	8e\ 8A\	.	8e/	.	8g/	.	4..cc#\	.	.	.	.	.	.	.	.	.	.	.	.	.	4..cc#\yy	.	.	.
.	.	.	.	8e\ 8A\	.	8e/	.	8g/	.	.	.	.	.	.	.	.	.	.	.	.	.	.	.	.	.	.	.
4r	.	4ryy	.	8e\ 8A\	.	8e/	.	8g/	.	.	.	.	.	.	.	.	.	.	.	.	.	.	.	.	.	.	.
.	.	.	.	8e\J 8A\	.	8e/J	.	8g/J	.	.	.	.	.	.	.	.	.	.	.	.	.	.	.	.	.	.	.
.	.	.	.	.	.	.	.	.	.	16ccc#\	.	.	.	.	.	.	.	.	.	.	.	.	.	16ccc#\yy	.	.	.
*	*	*	*	*Xrep	*	*	*	*	*	*	*	*	*	*	*	*	*	*	*	*	*	*	*	*	*	*	*
=20	=20	=20	=20	=20	=20	=20	=20	=20	=20	=20	=20	=20	=20	=20	=20	=20	=20	=20	=20	=20	=20	=20	=20	=20	=20	=20	=20
!LO:TX:a:t=arco	!	!LO:TX:a:t=arco	!	!	!	!	!	!LO:TX:b:i:t=ten	!	!	!	!	!	!	!	!	!	!	!	!	!LO:DY:rj	!	!	!	!	!	!
[2.AAA/	.	[2.AA/yy	.	[2.c#\	.	[2.e/	.	[2.g/ [2.A/	.	(16ddd#X\LL	.	2.r	.	2.r	.	2.r	.	[2.e\	.	[2.g/ [2.A/	p	2.r	.	(16ddd#X\LLyy	.	2.r	.
.	.	.	.	.	.	.	.	.	.	16eee\	.	.	.	.	.	.	.	.	.	.	.	.	.	16eee\yy	.	.	.
.	.	.	.	.	.	.	.	.	.	16gg#X\	.	.	.	.	.	.	.	.	.	.	.	.	.	16gg#X\yy	.	.	.
.	.	.	.	.	.	.	.	.	.	16aa\JJ)	.	.	.	.	.	.	.	.	.	.	.	.	.	16aa\JJ)yy	.	.	.
.	.	.	.	.	.	.	.	.	.	(16bb-X\LL	.	.	.	.	.	.	.	.	.	.	.	.	.	(16bb-X\LLyy	.	.	.
.	.	.	.	.	.	.	.	.	.	16gg#\	.	.	.	.	.	.	.	.	.	.	.	.	.	16gg#\yy	.	.	.
.	.	.	.	.	.	.	.	.	.	16ee\	.	.	.	.	.	.	.	.	.	.	.	.	.	16ee\yy	.	.	.
.	.	.	.	.	.	.	.	.	.	16dd\JJ	.	.	.	.	.	.	.	.	.	.	.	.	.	16dd\JJyy	.	.	.
.	.	.	.	.	.	.	.	.	.	16cc#\LL	.	.	.	.	.	.	.	.	.	.	.	.	.	16cc#\LLyy	.	.	.
.	.	.	.	.	.	.	.	.	.	16ee\	.	.	.	.	.	.	.	.	.	.	.	.	.	16ee\yy	.	.	.
.	.	.	.	.	.	.	.	.	.	16b-X\	.	.	.	.	.	.	.	.	.	.	.	.	.	16b-X\yy	.	.	.
.	.	.	.	.	.	.	.	.	.	16ee\JJ	.	.	.	.	.	.	.	.	.	.	.	.	.	16ee\JJyy	.	.	.
=21	=21	=21	=21	=21	=21	=21	=21	=21	=21	=21	=21	=21	=21	=21	=21	=21	=21	=21	=21	=21	=21	=21	=21	=21	=21	=21	=21
4AAA/]	.	4AA/]yy	.	4c#\]	.	4e/]	.	4g/] 4A/]	.	4a/)	.	2.r	.	4r	.	4r	.	4e\]	.	4g/] 4A/]	.	4r	.	4a/)	.	4r	.
8r	.	8ryy	.	8r	.	8r	.	8r	.	8r	.	.	.	8r	.	8r	.	8r	.	8r	.	8r	.	8r	.	8r	.
!	!	!	!	!	!	!	!	!	!	!	!LO:DY:rj	!	!	!	!LO:DY:rj	!	!LO:DY:rj	!	!LO:DY:rj	!	!	!	!LO:DY:rj	!	!	!	!LO:DY:rj
*	*	*	*	*tremolo	*	*	*	*	*	*tremolo	*	*	*	*	*	*	*	*	*	*	*	*	*	*	*	*	*
!	!LO:DY:rj	!	!LO:DY:rj	!	!	!	!	!	!	!	!	!	!	!	!	!	!	!	!	!	!	!	!	!	!	!	!
8AA'\L	f	8A'\Lyy	f	16c#\LL	.	16e/LL	.	16a\LL	.	16a/LL	f	.	.	8A\L	f	8a\L	f	8A\L	f	8e/L 8A/	.	8a/L 8c#/	f	8a\L	.	8aa'\L	f
.	.	.	.	16c#\	.	16e/	.	16a\	.	16a/	.	.	.	.	.	.	.	.	.	.	.	.	.	.	.	.	.
8EE'\	.	8E'\yy	.	16e\	.	16a/	.	16cc#\	.	16cc#/	.	.	.	8E\	.	8cc#\	.	8E\	.	8e/ 8A/	.	8cc#/ 8a/	.	8cc#\	.	8ccc#'\	.
.	.	.	.	16e\	.	16a/	.	16cc#\	.	16cc#/	.	.	.	.	.	.	.	.	.	.	.	.	.	.	.	.	.
8CC#'\J	.	8C#'\Jyy	.	16a\	.	16cc#/	.	16ee\	.	16ee/	.	.	.	8C#\J	.	8ee\J	.	8C#\J	.	8e/J 8A/	.	8ee/J 8cc#/	.	8ee\J	.	8eee'\J	.
.	.	.	.	16a\JJ	.	16cc#/JJ	.	16ee\JJ	.	16ee/JJ	.	.	.	.	.	.	.	.	.	.	.	.	.	.	.	.	.
*Xtremolo	*	*Xtremolo	*	*Xtremolo	*	*Xtremolo	*	*Xtremolo	*	*Xtremolo	*	*	*	*	*	*	*	*	*	*	*	*	*	*	*	*	*
=22||	=22||	=22||	=22||	=22||	=22||	=22||	=22||	=22||	=22||	=22||	=22||	=22||	=22||	=22||	=22||	=22||	=22||	=22||	=22||	=22||	=22||	=22||	=22||	=22||	=22||	=22||	=22||
!!LO:PB:g=original
*k[f#c#]	*	*k[f#c#]	*	*k[f#c#]	*	*k[f#c#]	*	*k[f#c#]	*	*k[f#c#]	*	*k[f#c#]	*	*k[f#c#]	*	*k[f#c#]	*	*k[f#c#]	*	*k[f#c#]	*	*k[f#c#]	*	*k[f#c#]	*	*k[f#c#]	*
*M2/4	*	*M2/4	*	*M2/4	*	*M2/4	*	*M2/4	*	*M2/4	*	*M2/4	*	*M2/4	*	*M2/4	*	*M2/4	*	*M2/4	*	*M2/4	*	*M2/4	*	*M2/4	*
*	*	*	*	*	*	*	*	*	*	*	*	*	*	*	*	*	*	*	*	*	*	*^	*	*	*	*	*
8AAA/	.	8AA/yy	.	8cc#\ 8e\ 8A\	.	8ee\ 8a\	.	8gg\ 8a\	.	2ryy	.	8AA/	.	8AA/	.	8cc#\	.	8AA/	.	8e/ 8A/	.	8ggX\ 8ee\	4ryy	.	8gg\	.	8ggg\	.
8r;	.	8r;yy	.	8r;	.	8r;	.	8r;	.	.	.	8r;	.	8r;	.	8r;	.	8r;	.	8r;	.	8r;	.	.	8r;	.	8r;	.
4r	.	4ryy	.	4r	.	4r	.	4r	.	.	.	4r	.	4r	.	4r	.	4r	.	4r	.	8a/L	4r	.	8a/L	.	8aa'\L	.
.	.	.	.	.	.	.	.	.	.	.	.	.	.	.	.	.	.	.	.	.	.	8a/J	.	.	8a/J	.	8aa'\J	.
=23	=23	=23	=23	=23	=23	=23	=23	=23	=23	=23	=23	=23	=23	=23	=23	=23	=23	=23	=23	=23	=23	=23	=23	=23	=23	=23	=23	=23
!	!LO:DY:rj	!	!LO:DY:rj	!	!	!	!	!	!	!	!	!	!	!	!	!	!	!	!	!	!	!	!	!	!LO:TX:a:t=Col Fl. 8va	!	!	!
8CC#/	p	8C#/yy	p	8r	.	8r	p	2r	.	2ryy	.	2r	.	2r	.	2r	.	2r	.	2r	.	(8b/L	2r	.	(8b/Lyy	.	(8bb\L	.
8r	.	8ryy	.	8e\	.	8g/ 8A/	.	.	.	.	.	.	.	.	.	.	.	.	.	.	.	8a/J)	.	.	8a/J)yy	.	8aa\J)	.
8AAA/	.	8AA/yy	.	8r	.	8r	.	.	.	.	.	.	.	.	.	.	.	.	.	.	.	8a'/L	.	.	8a'/Lyy	.	8aa'\L	.
8r	.	8ryy	.	8e\	.	8g/ 8A/	.	.	.	.	.	.	.	.	.	.	.	.	.	.	.	8a'/J	.	.	8a'/Jyy	.	8aa'\J	.
=24	=24	=24	=24	=24	=24	=24	=24	=24	=24	=24	=24	=24	=24	=24	=24	=24	=24	=24	=24	=24	=24	=24	=24	=24	=24	=24	=24	=24
8DD\	.	8D\yy	.	8r	.	8r	.	2r	.	2ryy	.	2r	.	2r	.	2r	.	2r	.	2r	.	(8b/L	2r	.	(8b/Lyy	.	(8bb\L	.
8r	.	8ryy	.	8d\	.	8f#/ 8A/	.	.	.	.	.	.	.	.	.	.	.	.	.	.	.	8a/J)	.	.	8a/J)yy	.	8aa\J)	.
8DD\	.	8D\yy	.	8r	.	8r	.	.	.	.	.	.	.	.	.	.	.	.	.	.	.	8a'/L	.	.	8a'/Lyy	.	8aa'\L	.
8r	.	8ryy	.	8d\	.	8f#/ 8A/	.	.	.	.	.	.	.	.	.	.	.	.	.	.	.	8a'/J	.	.	8a'/Jyy	.	8aa'\J	.
=25	=25	=25	=25	=25	=25	=25	=25	=25	=25	=25	=25	=25	=25	=25	=25	=25	=25	=25	=25	=25	=25	=25	=25	=25	=25	=25	=25	=25
8GG\	.	8G\yy	.	8r	.	8r	.	8b'\L	.	2ryy	.	2r	.	2r	.	2r	.	4G\	.	4e/ 4B/	p	8b/L	2g\	.	8b\Lyy	.	8bb\L	.
8r	.	8ryy	.	8e\	.	8g/ 8B/	.	8ee'\J	.	.	.	.	.	.	.	.	.	.	.	.	.	8ee/	.	.	8ee\yy	.	8eee\	.
8AA\	.	8A\yy	.	8r	.	8r	.	8a'\L	.	.	.	.	.	.	.	.	.	4A\	.	4e/ 4A/	.	8a/	.	.	8a\yy	.	8aa\	.
8r	.	8ryy	.	8e\	.	8g/ 8A/	.	8cc#'\J	.	.	.	.	.	.	.	.	.	.	.	.	.	8cc#/J	.	.	8cc#\Jyy	.	8ccc#\J	.
=26	=26	=26	=26	=26	=26	=26	=26	=26	=26	=26	=26	=26	=26	=26	=26	=26	=26	=26	=26	=26	=26	=26	=26	=26	=26	=26	=26	=26
4DD\	.	4D\yy	.	8r	.	8r	.	(8dd\L	.	2ryy	.	2r	.	2r	.	2r	.	4D\	.	4d/ 4A/	.	8dd/L	4f#\	.	(8dd\Lyy	.	(8ddd\L	.
.	.	.	.	8d\	.	8f#/ 8A/	.	16a\Jk)	.	.	.	.	.	.	.	.	.	.	.	.	.	16a/Jk	.	.	16a\Jk)yy	.	16aa\Jk)	.
.	.	.	.	.	.	.	.	16r	.	.	.	.	.	.	.	.	.	.	.	.	.	16rff	.	.	16ryy	.	16r	.
4r	.	4ryy	.	4r	.	4r	.	4r	.	.	.	.	.	.	.	.	.	4r	.	4r	.	8a/L	4r	.	8a'/Lyy	.	8aa'\L	.
.	.	.	.	.	.	.	.	.	.	.	.	.	.	.	.	.	.	.	.	.	.	8a/J	.	.	8a'/Jyy	.	8aa'\J	.
=27	=27	=27	=27	=27	=27	=27	=27	=27	=27	=27	=27	=27	=27	=27	=27	=27	=27	=27	=27	=27	=27	=27	=27	=27	=27	=27	=27	=27
.	.	.	.	.	.	.	.	.	.	.	.	.	.	.	.	.	.	.	.	.	.	(8qcc#/	.	.	(8qcc#/yy	.	(8qccc#/	.
8CC#/	.	8C#/yy	.	8r	.	8r	.	2r	.	2ryy	.	2r	.	2r	.	2r	.	2r	.	2r	.	8b/L)	2r	.	(8b/L)yy	.	8bb\L)	.
8r	.	8ryy	.	8e\	.	8g/ 8A/	.	.	.	.	.	.	.	.	.	.	.	.	.	.	.	8a/J	.	.	8a/J)yy	.	8aa\J	.
8AAA/	.	8AA/yy	.	8r	.	8r	.	.	.	.	.	.	.	.	.	.	.	.	.	.	.	8a'/L	.	.	8a'/Lyy	.	8aa'\L	.
8r	.	8ryy	.	8e\	.	8g/ 8A/	.	.	.	.	.	.	.	.	.	.	.	.	.	.	.	8a'/J	.	.	8a'/Jyy	.	8aa'\J	.
=28	=28	=28	=28	=28	=28	=28	=28	=28	=28	=28	=28	=28	=28	=28	=28	=28	=28	=28	=28	=28	=28	=28	=28	=28	=28	=28	=28	=28
!!LO:PB:g=original
!	!	!	!	!	!	!	!	!	!	!	!	!	!	!	!	!	!	!	!	!	!	!	!	!	!LO:TX:a:t=Col Fl. in 8va	!	!	!
.	.	.	.	.	.	.	.	.	.	.	.	.	.	.	.	.	.	.	.	.	.	(8qcc#/	.	.	(8qcc#/yy	.	(8qccc#/	.
8DD\	.	8D\yy	.	8r	.	8r	.	2r	.	2ryy	.	2r	.	2r	.	2r	.	2r	.	2r	.	8b/L)	2r	.	8b/L)yy	.	8bb\L)	.
8r	.	8ryy	.	8d\	.	8f#/ 8A/	.	.	.	.	.	.	.	.	.	.	.	.	.	.	.	8a/J	.	.	8a/Jyy	.	8aa\J	.
8DD\	.	8D\yy	.	8r	.	8r	.	.	.	.	.	.	.	.	.	.	.	.	.	.	.	8a'>/L	.	.	8a'/Lyy	.	8aa'\L	.
8r	.	8ryy	.	8d\	.	8f#/ 8A/	.	.	.	.	.	.	.	.	.	.	.	.	.	.	.	8a'>/J	.	.	8a'/Jyy	.	8aa'\J	.
=29	=29	=29	=29	=29	=29	=29	=29	=29	=29	=29	=29	=29	=29	=29	=29	=29	=29	=29	=29	=29	=29	=29	=29	=29	=29	=29	=29	=29
*	*	*	*	*	*	*	*	*	*	*	*	*	*	*	*	*	*	*	*	*^	*	*	*	*	*	*	*	*
8GG\	.	8G\yy	.	8r	.	8r	.	8b\L	.	8b\Lyy	.	2r	.	2r	.	2r	.	4G\	.	4e/	4B\	.	8b/L	2g\	.	8b\Lyy	.	8bb\L	.
8r	.	8ryy	.	8e\	.	8g/ 8B/	.	8ee\J	.	8ee\Jyy	.	.	.	.	.	.	.	.	.	.	.	.	8ee/J	.	.	8ee\Jyy	.	8eee\J	.
8AA\	.	8A\yy	.	8r	.	8r	.	8a\L	.	8a\Lyy	.	.	.	.	.	.	.	4A\	.	4e/	4A/	.	8a/L	.	.	8a\Lyy	.	8aa\L	.
8r	.	8ryy	.	8e\	.	8g/ 8A/	.	8cc#\J	.	8cc#\Jyy	.	.	.	.	.	.	.	.	.	.	.	.	8cc#/J	.	.	8cc#\Jyy	.	8ccc#\J	.
*	*	*	*	*	*	*	*	*	*	*	*	*	*	*	*	*	*	*	*	*v	*v	*	*	*	*	*	*	*	*
=30	=30	=30	=30	=30	=30	=30	=30	=30	=30	=30	=30	=30	=30	=30	=30	=30	=30	=30	=30	=30	=30	=30	=30	=30	=30	=30	=30	=30
4DD\	.	4D\yy	.	4d\	.	4f#/ 4A/	.	4dd\	.	4dd\yy	.	4r	.	4r	.	4r	.	4D\	.	4d/ 4A/	.	4dd/	4f#\	.	4dd^\yy	.	4ddd\	.
*	*	*	*	*	*	*	*	*	*	*	*	*	*	*	*	*	*	*	*	*	*	*v	*v	*	*	*	*	*
!	!LO:DY:rj	!	!LO:DY:rj	!	!LO:DY:rj	!	!	!	!LO:DY:rj	!	!LO:DY:rj	!	!	!	!	!	!LO:DY:rj	!	!LO:DY:a:rj	!	!	!	!LO:DY:rj	!	!LO:DY:rj	!	!LO:DY:rj
(8DD'\L	f	(8D'\Lyy	f	8f#\L 8d\	f	8b\L	.	(8dd'\L	f	(8dd'\Lyy	f	8D/L	.	8D\L	.	8dd'\L	f	8D\L	f	8f#\L 8d\	.	8dd\L 8b'\	f	8dd\Lyy	f	8ddd\L	f
8DD'\J)	.	8D'\J)yy	.	8f#\J 8d\	.	8b\J	.	8dd'\J)	.	8dd'\J)yy	.	8D/J	.	8D\J	.	8dd'\J	.	8D\J	.	8f#\J 8d\	.	8dd\J 8b'\	.	8dd\Jyy	.	8ddd\J	.
=31	=31	=31	=31	=31	=31	=31	=31	=31	=31	=31	=31	=31	=31	=31	=31	=31	=31	=31	=31	=31	=31	=31	=31	=31	=31	=31	=31
*	*	*	*	*	*	*	*	*	*	*	*	*	*	*	*	*	*	*	*	*^	*	*	*	*	*	*	*
[4EE\	.	[4E\yy	.	[4e\	.	(16a/LL	.	(16cc#\LL	.	(16cc#\LLyy	.	4AA/	.	[4E\	.	(16cc#\LL	.	[4E\	.	4e/	4e\	.	(16cc#\LL 16a\	.	16cc#\LLyy	.	(16ccc#\LL	.
.	.	.	.	.	.	16cc#/	.	16ee\	.	16ee\yy	.	.	.	.	.	16ee\	.	.	.	.	.	.	16ee\ 16cc#\	.	16ee\yy	.	16eee\	.
.	.	.	.	.	.	16b/	.	16dd\	.	16dd\yy	.	.	.	.	.	16dd\	.	.	.	.	.	.	16dd\ 16b\	.	16dd\yy	.	16ddd\	.
.	.	.	.	.	.	16a/JJ	.	16cc#\JJ	.	16cc#\JJyy	.	.	.	.	.	16cc#\JJ)	.	.	.	.	.	.	16cc#\JJ 16a\	.	16cc#\JJyy	.	16ccc#\JJ	.
8EE\L]	.	8E\L]yy	.	8e\L]	.	8a/L)	.	8b\L)	.	8b\L)yy	.	4r	.	8E\L]	.	8b\L	.	8E\L]	.	8e/L	8e\L	.	8b\L 8a\)	.	8b\Lyy	.	8bb\L)	.
8DD'\J	.	8D'\Jyy	.	8e\J 8d\	.	8g#X'/J	.	8b'\J	.	8b'\Jyy	.	.	.	8D\J	.	8b\J	.	8D\J	.	8e/J	8d\J	.	8b\J 8g#'\	.	8b\Jyy	.	8bb\J	.
*	*	*	*	*	*	*	*	*	*	*	*	*	*	*	*	*	*	*	*	*v	*v	*	*	*	*	*	*	*
=32	=32	=32	=32	=32	=32	=32	=32	=32	=32	=32	=32	=32	=32	=32	=32	=32	=32	=32	=32	=32	=32	=32	=32	=32	=32	=32	=32
4CC#/	sf	4C#/yy	sf	4e\ 4c#\	.	4a/	sf	4ee\ 4a\	sf	4eeyy\ 4a\yy	sf	4AA/	.	4C#/	.	4ee\	.	4C#/	sf	4e/ 4A/	sf	4ee\ 4a\	sf	4ee\yy	sf	4eee\	sf
8DD\L	.	8D\Lyy	.	8f#\L 8d\	.	8b/L	.	8dd'\L	.	8dd'\Lyy	.	4r	.	8D\L	.	8dd\L	.	8D\L	.	8f#\L 8d\	.	8dd\L 8b\	.	8dd\Lyy	.	8ddd\L	.
8DD\J	.	8D\Jyy	.	8f#\J 8d\	.	8b/J	.	8dd'\J	.	8dd'\Jyy	.	.	.	8D\J	.	8dd\J	.	8D\J	.	8f#\J 8d\	.	8dd\J 8b\	.	8dd\Jyy	.	8ddd\J	.
=33	=33	=33	=33	=33	=33	=33	=33	=33	=33	=33	=33	=33	=33	=33	=33	=33	=33	=33	=33	=33	=33	=33	=33	=33	=33	=33	=33
*	*	*	*	*	*	*	*	*	*	*	*	*	*	*	*	*	*	*	*	*	*	*^	*	*	*	*	*
!	!LO:DY:rj	!	!LO:DY:rj	!	!	!	!LO:DY:rj	!	!LO:DY:rj	!	!LO:DY:rj	!	!	!	!	!	!	!	!	!	!	!	!	!	!LO:TX:b:i:t=rall	!	!LO:TX:b:i:t=rall	!
8EE\	f	8E\yy	f	8e\ 8c#\	.	8a/	f	8cc#'\L	f	8cc#'\Lyy	f	8AA/	.	8E\	.	8cc#\	.	8E\	.	8e/ 8A/	.	8cc#'/L	8a\	.	8cc#'\Lyy	.	8ccc#'\L	.
!	!	!	!	!	!	!	!	!LO:TX:b:i:t=rall.	!	!LO:TX:b:i:t=rall.	!	!	!	!	!	!	!	!	!	!	!	!	!	!	!	!	!	!
8r	.	8ryy	.	8r	.	8r	.	(16ff#\L	.	(16ff#\Lyy	.	8r	.	8r	.	8r	.	8r	.	8r	.	(16ff#/L	8r	.	(16ff#\Lyy	.	(16fff#\L	.
.	.	.	.	.	.	.	.	16ee\JJ)	.	16ee\JJ)yy	.	.	.	.	.	.	.	.	.	.	.	16ee/JJ)	.	.	16ee\JJ)yy	.	16eee\JJ)	.
*	*	*	*	*	*	*	*	*	*	*	*	*	*	*	*	*	*	*	*	*^	*	*	*	*	*	*	*	*
8EE\	.	8E\yy	.	8e\ 8d\	.	8g#X/	.	8b'\L	.	8b'\Lyy	.	8D\	.	8E\	.	8b\	.	8EE/	.	8e/	8d\	.	8b'/L	8g#\	.	8b'\Lyy	.	8bb'\L	.
8r	.	8ryy	.	8r	.	8r	.	(16ff#\L	.	(16ff#\Lyy	.	8r	.	8r	.	8r	.	8r	.	8r	8ryy	.	(16ff#/L	8r	.	(16ff#\Lyy	.	(16fff#\L	.
.	.	.	.	.	.	.	.	16ee\JJ)	.	16ee\JJ)yy	.	.	.	.	.	.	.	.	.	.	.	.	16ee/JJ)	.	.	16ee\JJ)yy	.	16eee\JJ)	.
*	*	*	*	*	*	*	*	*	*	*	*	*	*	*	*	*	*	*	*	*v	*v	*	*	*	*	*	*	*	*
=34	=34	=34	=34	=34	=34	=34	=34	=34	=34	=34	=34	=34	=34	=34	=34	=34	=34	=34	=34	=34	=34	=34	=34	=34	=34	=34	=34	=34
!!LO:PB:g=original
8AA\	.	8A\yy	.	8e\ 8c#\	.	8a/	.	8a/	.	8a/yy	.	8AA/	.	8AA/	.	8cc#\	.	8AA/	.	8e\ 8A\	.	8a/	8a\	.	8a/	.	8aa\	.
8r	.	8ryy	.	8r	.	8r	.	8r	.	8ryy	.	8r	.	8r	.	8r	.	8r	.	8r	.	8r	8r	.	8r	.	8r	.
4r	.	4ryy	.	4r	.	4r	.	4r	.	4ryy	.	4r	.	4r	.	4r	.	4r	.	4r	.	8a/L	4r	.	8a'>/L	.	8aa'\L	.
.	.	.	.	.	.	.	.	.	.	.	.	.	.	.	.	.	.	.	.	.	.	8a/J	.	.	8a'>/J	.	8aa'\J	.
*	*	*	*	*	*	*	*	*	*	*	*	*	*	*	*	*	*	*	*	*	*	*v	*v	*	*	*	*	*
=35	=35	=35	=35	=35	=35	=35	=35	=35	=35	=35	=35	=35	=35	=35	=35	=35	=35	=35	=35	=35	=35	=35	=35	=35	=35	=35	=35
2ryy	.	2ryy	.	2ryy	.	2ryy	.	2ryy	.	2ryy	.	2ryy	.	2ryy	.	2ryy	.	2ryy	.	2ryy	.	2ryy	.	2ryy	.	(8bb\L	.
.	.	.	.	.	.	.	.	.	.	.	.	.	.	.	.	.	.	.	.	.	.	.	.	.	.	8aa\J	.
.	.	.	.	.	.	.	.	.	.	.	.	.	.	.	.	.	.	.	.	.	.	.	.	.	.	8aa'\L)	.
.	.	.	.	.	.	.	.	.	.	.	.	.	.	.	.	.	.	.	.	.	.	.	.	.	.	8aa'\J	.
=36	=36	=36	=36	=36	=36	=36	=36	=36	=36	=36	=36	=36	=36	=36	=36	=36	=36	=36	=36	=36	=36	=36	=36	=36	=36	=36	=36
*	*	*	*	*	*	*	*	*	*	*	*	*	*	*	*	*	*	*	*	*	*	*	*	*	*	*rep	*
2ryy	.	2ryy	.	2ryy	.	2ryy	.	2ryy	.	2ryy	.	2ryy	.	2ryy	.	2ryy	.	2ryy	.	2ryy	.	2ryy	.	2ryy	.	(8bb\L	.
.	.	.	.	.	.	.	.	.	.	.	.	.	.	.	.	.	.	.	.	.	.	.	.	.	.	8aa\J	.
.	.	.	.	.	.	.	.	.	.	.	.	.	.	.	.	.	.	.	.	.	.	.	.	.	.	8aa'\L)	.
.	.	.	.	.	.	.	.	.	.	.	.	.	.	.	.	.	.	.	.	.	.	.	.	.	.	8aa'\J	.
*	*	*	*	*	*	*	*	*	*	*	*	*	*	*	*	*	*	*	*	*	*	*	*	*	*	*Xrep	*
=37	=37	=37	=37	=37	=37	=37	=37	=37	=37	=37	=37	=37	=37	=37	=37	=37	=37	=37	=37	=37	=37	=37	=37	=37	=37	=37	=37
2ryy	.	2ryy	.	2ryy	.	2ryy	.	2ryy	.	2ryy	.	2ryy	.	2ryy	.	2ryy	.	2ryy	.	2ryy	.	2ryy	.	2ryy	.	8bb\L	.
.	.	.	.	.	.	.	.	.	.	.	.	.	.	.	.	.	.	.	.	.	.	.	.	.	.	8eee\J	.
.	.	.	.	.	.	.	.	.	.	.	.	.	.	.	.	.	.	.	.	.	.	.	.	.	.	8aa\L	.
.	.	.	.	.	.	.	.	.	.	.	.	.	.	.	.	.	.	.	.	.	.	.	.	.	.	8ccc#\J	.
=38	=38	=38	=38	=38	=38	=38	=38	=38	=38	=38	=38	=38	=38	=38	=38	=38	=38	=38	=38	=38	=38	=38	=38	=38	=38	=38	=38
2ryy	.	2ryy	.	2ryy	.	2ryy	.	2ryy	.	2ryy	.	2ryy	.	2ryy	.	2ryy	.	2ryy	.	2ryy	.	2ryy	.	2ryy	.	(8ddd\L	.
.	.	.	.	.	.	.	.	.	.	.	.	.	.	.	.	.	.	.	.	.	.	.	.	.	.	16aa\Jk)	.
.	.	.	.	.	.	.	.	.	.	.	.	.	.	.	.	.	.	.	.	.	.	.	.	.	.	16r	.
.	.	.	.	.	.	.	.	.	.	.	.	.	.	.	.	.	.	.	.	.	.	.	.	.	.	8aa'\L	.
.	.	.	.	.	.	.	.	.	.	.	.	.	.	.	.	.	.	.	.	.	.	.	.	.	.	8aa'\J	.
=39	=39	=39	=39	=39	=39	=39	=39	=39	=39	=39	=39	=39	=39	=39	=39	=39	=39	=39	=39	=39	=39	=39	=39	=39	=39	=39	=39
.	.	.	.	.	.	.	.	.	.	.	.	.	.	.	.	.	.	.	.	.	.	.	.	.	.	(8qccc#/	.
2ryy	.	2ryy	.	2ryy	.	2ryy	.	2ryy	.	2ryy	.	2ryy	.	2ryy	.	2ryy	.	2ryy	.	2ryy	.	2ryy	.	2ryy	.	8bb\L)	.
.	.	.	.	.	.	.	.	.	.	.	.	.	.	.	.	.	.	.	.	.	.	.	.	.	.	8aa\J	.
.	.	.	.	.	.	.	.	.	.	.	.	.	.	.	.	.	.	.	.	.	.	.	.	.	.	8aa'\L	.
.	.	.	.	.	.	.	.	.	.	.	.	.	.	.	.	.	.	.	.	.	.	.	.	.	.	8aa'\J	.
=40	=40	=40	=40	=40	=40	=40	=40	=40	=40	=40	=40	=40	=40	=40	=40	=40	=40	=40	=40	=40	=40	=40	=40	=40	=40	=40	=40
!!LO:PB:g=original
.	.	.	.	.	.	.	.	.	.	.	.	.	.	.	.	.	.	.	.	.	.	.	.	.	.	(8qccc#/	.
2ryy	.	2ryy	.	2ryy	.	2ryy	.	2r	.	2ryy	.	2ryy	.	2ryy	.	2ryy	.	2ryy	.	2ryy	.	2ryy	.	2ryy	.	8bb\L)	.
.	.	.	.	.	.	.	.	.	.	.	.	.	.	.	.	.	.	.	.	.	.	.	.	.	.	8aa\J	.
.	.	.	.	.	.	.	.	.	.	.	.	.	.	.	.	.	.	.	.	.	.	.	.	.	.	8aa'\L	.
.	.	.	.	.	.	.	.	.	.	.	.	.	.	.	.	.	.	.	.	.	.	.	.	.	.	8aa'\J	.
=41	=41	=41	=41	=41	=41	=41	=41	=41	=41	=41	=41	=41	=41	=41	=41	=41	=41	=41	=41	=41	=41	=41	=41	=41	=41	=41	=41
*	*	*	*	*	*	*	*	*	*	*	*	*	*	*	*	*	*	*	*	*	*	*^	*	*	*	*	*
8GGG/	.	8GG/yy	.	8r	.	8r	.	(8b\L	.	(8b\Lyy	.	2r	.	2r	.	2r	.	4G\	.	4e/ 4B/	.	8b/L	2g\	.	8b\L	.	8bb\L	.
8r	.	8ryy	.	8e\	.	8g/ 8B/	.	8ee\J)	.	8ee\J)yy	.	.	.	.	.	.	.	.	.	.	.	8ee/J	.	.	8ee\J	.	8eee\J	.
8AAA/	.	8AA/yy	.	8r	.	8r	.	8a'/L	.	8a'/Lyy	.	.	.	.	.	.	.	4A\	.	4e/ 4A/	.	8a/L	.	.	8a\L	.	8aa\L	.
8r	.	8ryy	.	8A/	.	8e/ 8A/	.	8cc#'/J	.	8cc#'/Jyy	.	.	.	.	.	.	.	.	.	.	.	8cc#/J	.	.	8cc#\J	.	8ccc#\J	.
*	*	*	*	*	*	*	*	*	*	*	*	*	*	*	*	*	*	*	*	*	*	*v	*v	*	*	*	*	*
=42	=42	=42	=42	=42	=42	=42	=42	=42	=42	=42	=42	=42	=42	=42	=42	=42	=42	=42	=42	=42	=42	=42	=42	=42	=42	=42	=42
!	!	!	!	!	!	!	!	!	!	!	!	!	!	!	!	!	!	!	!LO:DY:a	!	!	!	!	!	!	!	!
!	!	!	!	!	!	!	!	!	!	!	!	!	!	!	!LO:DY:rj	!	!	!	!LO:HP:a	!	!	!	!	!	!	!	!
2BBB-X^/	f	2BB-X^/yy	f	2B-X^/	f	2r	.	2r	.	2ryy	.	2r	.	2BB-X/	f > ]]	2r	.	2BBB-X/	f > ]]	2r	.	2r	.	2r	.	2r	.
=43	=43	=43	=43	=43	=43	=43	=43	=43	=43	=43	=43	=43	=43	=43	=43	=43	=43	=43	=43	=43	=43	=43	=43	=43	=43	=43	=43
!	!	!	!	!	!	!	!	!	!	!	!	!	!	!	!	!	!	!	!	!	!	!	!	!LO:TX:a:t=Col V°.1°.	!	!LO:TX:a:t=Fl. Picolo	!
[2BBB-X/	<	[2BB-X/yy	<	[2Fn/ [2D/	.	(16d/LL	.	(16dd\LL	.	(16dd\LLyy	.	2DTT\	.	[2BB-X/	.	2r	.	[2B-X\	f < [[	[2d/ [2D/	f	[2dd\ [>2fX\	<	(16dd\LLyy	<	(16dd\LL	<
.	.	.	.	.	.	16e-X/	.	16ee-X\	.	16ee-X\yy	.	.	.	.	.	.	.	.	.	.	.	.	.	16ee-X\yy	.	16ee-X\	.
.	.	.	.	.	.	16en/	.	16een\	.	16een\yy	.	.	.	.	.	.	.	.	.	.	.	.	.	16een\yy	.	16een\	.
.	.	.	.	.	.	16f#/JJ	<	16ff#\JJ	<	16ff#\JJyy	<	.	.	.	.	.	.	.	.	.	.	.	.	16ff#\JJyy	.	16ff#\JJ	.
.	.	.	.	.	.	16f#X/LL	.	16ff#X\LL	.	16ff#X\LLyy	.	.	.	.	.	.	.	.	.	.	.	.	.	16ff#X\LLyy	.	16ff#X\LL	.
.	.	.	.	.	.	16g/	.	16gg\	.	16gg\yy	.	.	.	.	.	.	.	.	.	.	.	.	.	16gg\yy	.	16gg\	.
.	.	.	.	.	.	16g#X/	.	16gg#X\	.	16gg#X\yy	.	.	.	.	.	.	.	.	.	.	.	.	.	16gg#X\yy	.	16gg#X\	.
.	.	.	.	.	.	16a/JJ	[	16aa\JJ	[	16aa\JJyy	[	.	.	.	.	.	.	.	.	.	.	.	.	16aa\JJyy	[	16aa\JJ)	[
=44	=44	=44	=44	=44	=44	=44	=44	=44	=44	=44	=44	=44	=44	=44	=44	=44	=44	=44	=44	=44	=44	=44	=44	=44	=44	=44	=44
!	!	!	!	!	!	!LO:TX:a:t=Col 1°.8va	!	!	!	!	!	!	!	!	!	!	!	!	!	!	!	!	!	!	!	!LO:TX:a:t=Col V°.1°.	!
2BBB-/]	[	2BB-/]yy	[	2FnX/] 2D/]	.	(16b-X/LL)yy	>	(16bb-X\LL)	>	(16bb-X\LL)yy	>	2DTTT\	.	2BB-/]	.	2r	.	2B-\]	[[	2d/] 2D/]	.	2dd\] 2f\]	[[	(16bb-X\LL)yy	>	(16bb-X\LLyy	>
.	>	.	>	.	.	16a/yy	.	16aa\	.	16aa\yy	.	.	.	.	.	.	.	.	>	.	.	.	>	16aa\yy	.	16aa\yy	.
.	.	.	.	.	.	16g#X/yy	.	16gg#X\	.	16gg#X\yy	.	.	.	.	.	.	.	.	.	.	.	.	.	16gg#X\yy	.	16gg#X\yy	.
.	.	.	.	.	.	16gn/JJyy	.	16ggn\JJ	.	16ggn\JJyy	.	.	.	.	.	.	.	.	]	.	.	.	.	16ggn\JJyy	.	16ggn\JJyy	.
.	]	.	]	.	.	16f#X/LLyy	.	16ff#X\LL	]	16ff#X\LLyy	]	.	.	.	.	.	.	.	.	.	.	.	]	16ff#X\LLyy	.	16ff#X\LLyy	.
.	.	.	.	.	.	16fn/yy	.	16ffn\	.	16ffn\yy	.	.	.	.	.	.	.	.	.	.	.	.	.	16ffn\yy	.	16ffn\yy	.
.	.	.	.	.	.	16e/yy	]	16ee\	.	16ee\yy	.	.	.	.	.	.	.	.	.	.	.	.	.	16ee\yy	.	16ee\yy	.
.	.	.	.	.	.	16e-X/JJyy	.	16ee-X\JJ	.	16ee-X\JJyy	.	.	.	.	.	.	.	.	.	.	.	.	.	16ee-X\JJyy	]	16ee-X\JJyy	]
=45	=45	=45	=45	=45	=45	=45	=45	=45	=45	=45	=45	=45	=45	=45	=45	=45	=45	=45	=45	=45	=45	=45	=45	=45	=45	=45	=45
!	!	!	!	!LO:TX:t=P:problem:brak początku ligatur	!	!	!	!	!	!	!	!	!	!LO:TX:t=P:problem:brak początku ligatury	!	!	!	!	!	!LO:TX:t=P:problem:brak początku ligatur	!	!	!	!	!	!	!
[2AAA/	.	2AA/yy	.	[2Fn/ [2D/	.	(16d/LL)yy	.	(16dd\LL)	.	(16dd\LL)yy	.	2DTTT\	.	[2AA/	.	2r	.	[2A\	.	[2d/ [>2D/	.	[2dd\ [>2fX\	<[	(16dd\LL)yy	<	(16dd\LL)yy	<
.	.	.	.	.	.	16e-X/yy	.	16ee-X\	.	16ee-X\yy	.	.	.	.	.	.	.	.	.	.	.	.	.	16ee-X\yy	.	16ee-X\yy	.
.	.	.	.	.	.	16en/yy	<	16een\	.	16een\yy	.	.	.	.	.	.	.	.	.	.	.	.	.	16een\yy	.	16een\yy	.
.	.	.	.	.	.	16f#/JJyy	.	16ff#\JJ	<	16ff#\JJyy	<	.	.	.	.	.	.	.	.	.	.	.	.	16ff#\JJyy	.	16ff#\JJyy	.
.	.	.	.	.	.	16f#X/LLyy	.	16ff#X\LL	.	16ff#X\LLyy	.	.	.	.	.	.	.	.	.	.	.	.	.	16ff#X\LLyy	.	16ff#X\LLyy	.
.	.	.	.	.	.	16g/yy	.	16gg\	.	16gg\yy	.	.	.	.	.	.	.	.	.	.	.	.	.	16gg\yy	.	16gg\yy	.
.	.	.	.	.	.	16g#X/yy	.	16gg#X\	.	16gg#X\yy	.	.	.	.	.	.	.	.	.	.	.	.	.	16gg#X\yy	.	16gg#X\yy	.
.	.	.	.	.	.	16a/JJ)yy	[	16aa\JJ)	[	16aa\JJ)yy	[	.	.	.	.	.	.	.	.	.	.	.	.	16aa\JJ)yy	[	16aa\JJ)yy	[
=46	=46	=46	=46	=46	=46	=46	=46	=46	=46	=46	=46	=46	=46	=46	=46	=46	=46	=46	=46	=46	=46	=46	=46	=46	=46	=46	=46
!!LO:PB:g=original
2AAA/]	.	2ryy	.	2FnX/] 2D/]	.	(16b-X/LLyy	.	(16bb-X\LL	.	(16bb-X\LLyy	.	2r	.	2AA/]	.	2r	.	2A\]	.	2d/] 2D/]	.	2dd\_ 2fnX\_>	.	(16bb-X\LLyy	.	(16bb-X\LLyy	.
.	.	.	.	.	.	16a/yy	.	16aa\	.	16aa\yy	.	.	.	.	.	.	.	.	.	.	.	.	.	16aa\yy	.	16aa\yy	.
.	.	.	.	.	.	16g#X/yy	.	16gg#X\	.	16gg#X\yy	.	.	.	.	.	.	.	.	.	.	.	.	.	16gg#X\yy	.	16gg#X\yy	.
.	.	.	.	.	.	16gn/JJyy	.	16ggn\JJ	.	16ggn\JJyy	.	.	.	.	.	.	.	.	.	.	.	.	.	16ggn\JJyy	.	16ggn\JJyy	.
.	.	.	.	.	.	16f#X/LLyy	.	16ff#X\LL	.	16ff#X\LLyy	.	.	.	.	.	.	.	.	.	.	.	.	.	16ff#X\LLyy	.	16ff#X\LLyy	.
.	.	.	.	.	.	16fn/yy	.	16ffn\	.	16ffn\yy	.	.	.	.	.	.	.	.	.	.	.	.	.	16ffn\yy	.	16ffn\yy	.
.	.	.	.	.	.	16e/yy	.	16ee\	.	16ee\yy	.	.	.	.	.	.	.	.	.	.	.	.	.	16ee\yy	.	16ee\yy	.
.	.	.	.	.	.	16e-X/JJ)yy	.	16ee-X\JJ)	.	16ee-X\JJ)yy	.	.	.	.	.	.	.	.	.	.	.	.	.	16ee-X\JJ)yy	.	16ee-X\JJ)yy	.
=47	=47	=47	=47	=47	=47	=47	=47	=47	=47	=47	=47	=47	=47	=47	=47	=47	=47	=47	=47	=47	=47	=47	=47	=47	=47	=47	=47
[2GGG#X/	.	2ryy	.	[2Fn/ [2D/	.	(16d/LLyy	.	(16dd\LL	.	(16dd\LLyy	.	2DT\	<	[2GG#X/	.	[2bn\	<[	[2G#X\	<	[2d/ [2D/	.	2dd\_ 2fnX\_>	<[	(16dd\LLyy	.	(16dd\LLyy	<
.	.	.	.	.	.	16e-X/yy	<	16ee-X\	<	16ee-X\yy	.	.	.	.	.	.	.	.	.	.	.	.	.	16ee-X\yy	<	16ee-X\yy	.
.	.	.	.	.	.	16en/yy	.	16een\	.	16een\yy	<	.	.	.	.	.	.	.	.	.	.	.	.	16een\yy	.	16een\yy	.
.	.	.	.	.	.	16f#/JJyy	.	16ff#\JJ	.	16ff#\JJyy	.	.	.	.	.	.	.	.	.	.	.	.	.	16ff#\JJyy	.	16ff#\JJyy	.
.	.	.	.	.	.	16f#X/LLyy	.	16ff#X\LL	.	16ff#X\LLyy	.	.	.	.	.	.	.	.	.	.	.	.	.	16ff#X\LLyy	.	16ff#X\LLyy	.
.	.	.	.	.	.	16g/yy	.	16gg\	.	16gg\yy	.	.	.	.	.	.	.	.	.	.	.	.	.	16gg\yy	.	16gg\yy	.
.	.	.	.	.	.	16g#X/yy	.	16gg#X\	.	16gg#X\yy	.	.	.	.	.	.	.	.	.	.	.	.	.	16gg#X\yy	.	16gg#X\yy	.
.	.	.	.	.	.	16a/JJ)yy	[	16aa\JJ)	[	16aa\JJ)yy	[	.	[[	.	.	.	.	.	[[	.	.	.	.	16aa\JJ)yy	[	16aa\JJ)yy	[
=48	=48	=48	=48	=48	=48	=48	=48	=48	=48	=48	=48	=48	=48	=48	=48	=48	=48	=48	=48	=48	=48	=48	=48	=48	=48	=48	=48
4GGG#X/]	.	2ryy	.	4F/X] 4D/]	.	4bn\	.	4bbn\	.	4bbn\yy	.	4D\	.	4GG#X/]	.	4b\]	.	4G#X\]	.	4d/] 4D/]	.	4dd\] 4fnX\]	.	4bbn\	.	4bbn\	.
4r	.	.	.	4r	.	4r	.	4r	.	4ryy	.	4r	.	4r	.	4r	.	4r	.	4r	.	4r	.	4r	.	4r	.
=49	=49	=49	=49	=49	=49	=49	=49	=49	=49	=49	=49	=49	=49	=49	=49	=49	=49	=49	=49	=49	=49	=49	=49	=49	=49	=49	=49
*	*	*	*	*^	*	*	*	*	*	*	*	*	*	*	*	*	*	*	*	*^	*	*	*	*	*	*	*
4AAA/	.	2ryy	.	[2f#X/	[2d\	.	4.a/	.	4.aa\ 4.a\	.	4.aayy\ 4.a\yy	.	2r	.	[2AA/	.	4.a/	.	[2A\	.	[2f#/	[2d\	.	4.a\	.	4.aa\	.	4.aa\	.
[4AA\	.	.	.	.	.	.	.	.	.	.	.	.	.	.	.	.	.	.	.	.	.	.	.	.	.	.	.	.	.
.	.	.	.	.	.	.	(16f#/LL	.	(16ff#\LL	.	(16ff#\LLyy	.	.	.	.	.	16f#/LL	.	.	.	.	.	.	(16ff#\LL	.	(16ff#\LL	.	(16fff#\LL	.
.	.	.	.	.	.	.	16d/JJ)	.	16dd\JJ)	.	16dd\JJ)yy	.	.	.	.	.	16d/JJ	.	.	.	.	.	.	16dd\JJ)	.	16dd\JJ)	.	16ddd\JJ)	.
=50	=50	=50	=50	=50	=50	=50	=50	=50	=50	=50	=50	=50	=50	=50	=50	=50	=50	=50	=50	=50	=50	=50	=50	=50	=50	=50	=50	=50	=50
*	*	*	*	*	*	*	*	*	*	*	*	*	*	*	*	*	*	*	*	*	*	*	*	*^	*	*	*	*	*
8AA\]	.	2ryy	.	8f#/]	8d\]	.	8A/	.	8a/	.	8a/yy	.	4r	.	8AA/]	.	8A/	.	8A\]	.	8f#/]	8d\]	.	8dd/	8a\	.	8ff#\	.	8aa\	.
8r	.	.	.	8r	4.ryy	.	8r	.	8r	.	8ryy	.	.	.	8r	.	8r	.	8r	.	8r	8ryy	.	8r	4.ryy	.	8r	.	8r	.
8AAA/	.	.	.	8a\ 8e\ 8A\	.	.	8e/ 8A/	.	8cc#/ 8e/	.	8cc#yy/ 8e/yy	.	8AA/	.	8AA/	.	8c#/	.	8AA/	.	8e/	8A\	.	8cc#\ 8a\	.	.	8ee\	.	8ccc#\	.
8r;	.	.	.	8r;	.	.	8r;	.	8r;	.	8r;yy	.	8r;	.	8r;	.	8r;	.	8r;	.	8r;	8ryy	.	8r;	.	.	8r;	.	8r;	.
*	*	*	*	*v	*v	*	*	*	*	*	*	*	*	*	*	*	*	*	*	*	*v	*v	*	*v	*v	*	*	*	*	*
=51||	=51||	=51||	=51||	=51||	=51||	=51||	=51||	=51||	=51||	=51||	=51||	=51||	=51||	=51||	=51||	=51||	=51||	=51||	=51||	=51||	=51||	=51||	=51||	=51||	=51||	=51||	=51||
!!LO:PB:g=original
*M3/8	*	*M3/8	*	*M3/8	*	*M3/8	*	*M3/8	*	*M3/8	*	*M3/8	*	*M3/8	*	*M3/8	*	*M3/8	*	*M3/8	*	*M3/8	*	*M3/8	*	*M3/8	*
*	*	*	*	*	*	*	*	*	*	*	*	*	*	*	*	*	*	*	*	*	*	*^	*	*	*	*	*
4.r	.	4.ryy	.	4.r	.	8r	.	8r	.	4.ryy	.	4.r	.	4.r	.	8r	.	4.r	.	4.r	.	8r	8ryy	.	8r	.	8r	.
.	.	.	.	.	.	8r	.	8r	.	.	.	.	.	.	.	8r	.	.	.	.	.	8r	8ryy	.	8r	.	8r	<
.	.	.	.	.	.	(8a/	.	(<8a/	.	.	.	.	.	.	.	(<8a/	.	.	.	.	.	(8a/	8a\	.	(8aa\	.	(8aa\	[[
.	f	.	f	.	f	.	.	.	.	.	.	.	.	.	.	.	.	.	.	.	.	.	.	.	.	.	.	.
*	*	*	*	*	*	*	*	*	*	*	*	*	*	*	*	*	*	*	*	*	*	*v	*v	*	*	*	*	*
=52	=52	=52	=52	=52	=52	=52	=52	=52	=52	=52	=52	=52	=52	=52	=52	=52	=52	=52	=52	=52	=52	=52	=52	=52	=52	=52	=52
!	!	!	!	!	!	!	!	!	!	!	!	!	!	!	!	!	!	!	!	!	!LO:DY:rj	!	!	!	!	!	!LO:DY:rj
8DD\L	.	8D\Lyy	.	8A/L 8D/	,	8f#/L)	.	8dd\L)	.	4.ryy	.	8D/L	.	8D\L	.	8dd\L)	.	8D\L	f	8d/L 8D/	f	8dd\L 8f#\)	.	8ff#\L)	.	8ddd\L)	f
8DD\J	.	8D\Jyy	.	8A/J 8D/	.	8f#'/J	.	8dd'\J	.	.	.	8D/J	.	8D\J	.	8dd'\J	.	8d\J	.	8d/J 8D/	.	8dd\J 8f#'\	.	8ff#'\J	.	8ddd'\J	.
8r	.	8ryy	.	8r	.	16d/LL	.	(16f#/LL	.	.	.	8r	.	8r	.	(16f#/LL	.	8r	.	8r	.	(16f#/LL 16d/	.	(16dd\LL	.	(16ff#\LL	.
.	.	.	.	.	.	16e/JJ	.	16g/JJ)	.	.	.	.	.	.	.	16g/JJ	.	.	.	.	.	16g/JJ 16e/)	.	16ee\JJ)	.	16gg\JJ)	.
=53	=53	=53	=53	=53	=53	=53	=53	=53	=53	=53	=53	=53	=53	=53	=53	=53	=53	=53	=53	=53	=53	=53	=53	=53	=53	=53	=53
8DD\L	.	8D\Lyy	.	8A/L 8D/	.	4f#/	.	4a/	.	4.ryy	.	8D/L	.	8D\L	.	4a/)	.	8D\L	.	8d/L 8D/	.	4a\ 4f#\	.	4ff#\	.	4aa\	.
8DD\J	.	8D\Jyy	.	8A/J 8D/	.	.	.	.	.	.	.	8D/J	.	8D\J	.	.	.	8d\J	.	8d/J 8D/	.	.	.	.	.	.	.
8r	.	8ryy	.	8r	.	8g/	.	8b/	.	.	.	8r	.	8r	.	8b/	.	8r	.	8r	.	8b\ 8g\	.	8gg\	.	8bb\	.
=54	=54	=54	=54	=54	=54	=54	=54	=54	=54	=54	=54	=54	=54	=54	=54	=54	=54	=54	=54	=54	=54	=54	=54	=54	=54	=54	=54
!	!	!	!	!	!	!	!	!	!	!	!	!	!	!	!	!	!	!LO:TX:a:t=Col b&colon;	!	!	!	!	!	!	!	!	!
!LO:TX:t=P:problem:mixedbeam	!	!LO:TX:t=P:problem:mixedbeam	!	!	!	!	!	!	!	!	!	!	!	!	!	!	!	!LO:TX:t=P:problem:mixedbeam	!	!	!	!	!	!	!	!LO:TX:a:t=Col V°.1°8va	!
8AAA/L	.	8AA/Lyy	.	8A/L	.	(16f#/LL	.	(16a/LL	.	4.ryy	.	8AA/L	.	8AA/L	.	(16a/LL	.	8AA/Lyy	.	8A/L 8AA/	.	(16a/LL 16f#/	.	(16ff#\LL	.	(16aa\LLyy	.
.	.	.	.	.	.	16e/JJ	.	16g/JJ	.	.	.	.	.	.	.	16g/JJ	.	.	.	.	.	16g/JJ 16e/	.	16ee\JJ)	.	16gg\JJyy	.
8AA\J	.	8A\Jyy	.	8A/J	.	8c#/L)	.	8e/L)	.	.	.	8AA/J	.	8AA/J	.	8e/L)	.	8A\Jyy	.	8A/J 8AA/	.	8e/L 8c#/)	.	8cc#\L	.	8ee\L)yy	.
8r	.	8ryy	.	8r	.	8g/J	.	8b'/J	.	.	.	8r	.	8r	.	8b/J	.	8ryy	.	8r	.	8b/J 8g/	.	8gg\J	.	8bb'\Jyy	.
=55	=55	=55	=55	=55	=55	=55	=55	=55	=55	=55	=55	=55	=55	=55	=55	=55	=55	=55	=55	=55	=55	=55	=55	=55	=55	=55	=55
*	*	*	*	*	*	*	*	*	*	*	*	*	*	*	*	*	*	*	*	*	*	*^	*	*	*	*	*
!	!	!	!	!	!	!	!	!	!	!	!	!	!	!	!	!	!	!	!	!	!	!LO:SIC:v:s=16g#	!	!	!	!	!	!
8DD\L	.	8D\Lyy	.	8A/L 8D/	.	8f#/L	.	(16g#X\LL	.	4.ryy	.	8D\L	.	8D\L	.	(16g#X/LL	.	8D\Lyy	.	8d/L 8D/	.	16g##/LL	8f#\L	.	(16gg#X\LL	.	(16gg#X\LLyy	.
.	.	.	.	.	.	.	.	16a\)	.	.	.	.	.	.	.	16a/)	.	.	.	.	.	16a/	.	.	16aa\)	.	16aa\)yy	.
8D\J	.	8d\Jyy	.	8A/J 8D/	.	8f#/J 8A/	.	16ff#'\	.	.	.	8D\J	.	8D\J	.	16f#'/	.	8d\Jyy	.	8d/J 8D/	.	16ff#/	8f#\J	.	16ff#'\	.	16fff#'\yy	.
.	.	.	.	.	.	.	.	16dd'\JJ	.	.	.	.	.	.	.	16d'/JJ	.	.	.	.	.	16dd/JJ	.	.	16dd'\JJ	.	16ddd'\JJyy	.
8r	.	8ryy	.	8r	.	(8a/	.	(8a/	.	.	.	8r	.	8r	.	(8a/	.	8ryy	.	8r	.	(8a/	8a\	.	8a/	.	(8aa\yy	.
*	*	*	*	*	*	*	*	*	*	*	*	*	*	*	*	*	*	*	*	*	*	*v	*v	*	*	*	*	*
=56	=56	=56	=56	=56	=56	=56	=56	=56	=56	=56	=56	=56	=56	=56	=56	=56	=56	=56	=56	=56	=56	=56	=56	=56	=56	=56	=56
*	*	*	*	*rep	*	*	*	*	*	*	*	*rep	*	*rep	*	*	*	*	*	*	*	*	*	*	*	*	*
8DD\L	.	8D\Lyy	.	8A/L 8D/	.	8f#/L)	.	8dd\L)	.	4.ryy	.	8D\L	.	8D\L	.	8dd\L)	.	8D\Lyy	.	8d/L 8D/	.	8ff#\L 8f#\)	.	8dd\L	.	8ddd\L)yy	.
8DD\J	.	8D\Jyy	.	8A/J 8D/	.	8f#'/J	.	8dd'\J	.	.	.	8D\J	.	8D\J	.	8dd'\J	.	8D\Jyy	.	8d/J 8D/	.	8ff#\J 8f#'\	.	8dd\J	.	8ddd'\Jyy	.
8r	.	8ryy	.	8r	.	16d/LL	.	(16f#/LL	.	.	.	8r	.	8r	.	(16f#/LL	.	8ryy	.	8r	.	(16dd\LL 16d\	.	(16ff#\LL	.	(16ff#\LLyy	.
.	.	.	.	.	.	16e/JJ	.	16g/JJ)	.	.	.	.	.	.	.	16g/JJ)	.	.	.	.	.	16ee\JJ 16e\)	.	16gg\JJ	.	16gg\JJ)yy	.
*	*	*	*	*Xrep	*	*	*	*	*	*	*	*Xrep	*	*Xrep	*	*	*	*	*	*	*	*	*	*	*	*	*
=57	=57	=57	=57	=57	=57	=57	=57	=57	=57	=57	=57	=57	=57	=57	=57	=57	=57	=57	=57	=57	=57	=57	=57	=57	=57	=57	=57
!!LO:PB:g=original
!	!	!	!	!	!	!	!	!	!	!	!	!	!	!	!	!	!	!	!	!	!	!	!	!LO:TX:t=P:problem:brak zakończenia łuku	!	!	!
8DD\L	.	4.ryy	.	8d\L	.	4f#/	.	4a/	.	4a/yy	.	8D\L	.	8D\L	.	4a/	.	8D\Lyy	.	8d/L 8D/	.	4ff#\ 4f#\	.	4aa\)	.	4aa\yy	.
8DD\J	.	.	.	8d\J	.	.	.	.	.	.	.	8D\J	.	8D\J	.	.	.	8D\Jyy	.	8d/J 8D/	.	.	.	.	.	.	.
8r	.	.	.	8r	.	8g/	.	8b/	.	8b/yy	.	8r	.	8r	.	8b/	.	8ryy	.	8r	.	8gg\ 8g\	.	8bb\	.	8bb\yy	.
=58	=58	=58	=58	=58	=58	=58	=58	=58	=58	=58	=58	=58	=58	=58	=58	=58	=58	=58	=58	=58	=58	=58	=58	=58	=58	=58	=58
!LO:TX:t=P:problem:mixedbeam	!	!	!	!	!	!	!	!	!	!	!	!	!	!	!	!	!	!LO:TX:t=P:problem:mixedbeam	!	!	!	!	!	!	!	!	!
8AAA/L	.	4.ryy	.	8A/L	.	(16f#/LL	.	(16a/LL	.	(16a/LLyy	.	8AA/	.	4A\	.	(16a/LL	.	8AA/Lyy	.	8r	.	(16ff#\LL 16f#\	.	(16aa\LL	.	(16aa\LLyy	.
.	.	.	.	.	.	16e/JJ	.	16g/JJ)	.	16g/JJ)yy	.	.	.	.	.	16g/JJ)	.	.	.	.	.	16ee\JJ 16e\	.	16gg\JJ)	.	16gg\JJ)yy	.
8AA\	.	.	.	8A/J	.	8c#/L)	.	8e/L	.	8e/Lyy	.	8r	.	.	.	8e/L	.	8A\yy	.	8e/L 8A/	.	8cc#\L 8c#\)	.	8ee\	.	8ee\yy	.
8AAA/J	.	.	.	8e\ 8A\	.	8g/J 8A/	.	8cc#/J 8e/	.	8cc#/yyJ 8e/yy	.	8AA/	.	8AA/	.	8a/J	.	8AA/Jyy	.	8e/J 8A/	.	8gg\J 8cc#\	.	8ee\	.	8ccc#\	.
=59	=59	=59	=59	=59	=59	=59	=59	=59	=59	=59	=59	=59	=59	=59	=59	=59	=59	=59	=59	=59	=59	=59	=59	=59	=59	=59	=59
8DD\	.	4ryy	.	8d\	.	8f#/ 8A/	.	8dd/ 8f#/	.	8ddyy/ 8f#/yy	.	8D\	.	8D\	.	8d/	.	8D\yy	.	8d/ 8F#/	.	8ff#\ 8dd\	.	8dd\	.	8ddd\	.
8r	.	.	.	8r	.	8r	.	8r	.	8ryy	.	8r	.	8r	.	8r	.	8ryy	.	8r	.	8r	.	8r	.	8r	.
=!|:	=!|:	=!|:	=!|:	=!|:	=!|:	=!|:	=!|:	=!|:	=!|:	=!|:	=!|:	=!|:	=!|:	=!|:	=!|:	=!|:	=!|:	=!|:	=!|:	=!|:	=!|:	=!|:	=!|:	=!|:	=!|:	=!|:	=!|:
*>B	*	*>B	*	*>B	*	*>B	*	*>B	*	*>B	*	*>B	*	*>B	*	*>B	*	*>B	*	*>B	*	*>B	*	*>B	*	*>B	*
(16AA\LL	.	8ryy	.	8r	.	8r	.	8r	.	8ryy	.	8r	.	8r	.	8r	.	(16A\LLyy	.	8r	.	8r	.	8r	.	8r	.
16BB-X\JJ	.	.	.	.	.	.	.	.	.	.	.	.	.	.	.	.	.	16B-X\JJyy	.	.	.	.	.	.	.	.	.
=60	=60	=60	=60	=60	=60	=60	=60	=60	=60	=60	=60	=60	=60	=60	=60	=60	=60	=60	=60	=60	=60	=60	=60	=60	=60	=60	=60
*	*	*	*	*	*	*	*	*	*	*	*	*	*	*	*	*	*	*	*	*	*	*^	*	*	*	*	*
8AA\L)	.	8ryy	.	8e\L	.	8g/L 8A/	p	8r	.	8ryy	.	4.r	.	4.r	.	4.r	.	8A\L)yy	.	4.r	.	8r	4.re	.	8r	.	8r	.
8CC#'\J	.	4ryy	.	8e\J	.	8g/J 8A/	.	8r	.	8ryy	.	.	.	.	.	.	.	8C#'\Jyy	.	.	.	8r	.	.	8r	.	8r	.
8r	.	.	.	8r	.	8r	.	(<16g#X/LL	.	(16g#X/LLyy	.	.	.	.	.	.	.	8ryy	.	.	.	16g#/LL	.	.	(16gg#X\LL	.	(16gg#X\LL	.
.	.	.	.	.	.	.	.	16a/JJ	.	16a/JJyy	.	.	.	.	.	.	.	.	.	.	.	16a/JJ	.	.	16aa\JJ	.	16aa\JJ)	.
*	*	*	*	*	*	*	*	*	*	*	*	*	*	*	*	*	*	*	*	*	*	*v	*v	*	*	*	*	*
=61	=61	=61	=61	=61	=61	=61	=61	=61	=61	=61	=61	=61	=61	=61	=61	=61	=61	=61	=61	=61	=61	=61	=61	=61	=61	=61	=61
!	!	!	!	!	!	!	!	!	!	!	!	!	!	!	!	!	!	!	!	!	!LO:DY:rj	!	!	!	!	!	!
8AAA/L	.	4ryy	.	8e\L	.	8g/L 8A/	.	8cc#\L)	.	8cc#\L)yy	.	4.r	.	4.r	.	4.r	.	8AA/Lyy	.	8e/L 8A/	p	8cc#/L 8e/	.	8ee\L)	.	8ccc#\L	.
8AAA/J	.	.	.	8e\J	.	8g/J 8A/	.	8cc#'\J	.	8cc#'\Jyy	.	.	.	.	.	.	.	8AA/Jyy	.	8e/J 8A/	.	8cc#/J 8e/	.	8ee'\J	.	8ccc#'\J	.
(16AA\LL	.	8ryy	.	8r	.	8r	.	8r	.	8ryy	.	.	.	.	.	.	.	(16A\LLyy	.	8r	.	8r	.	8r	.	8r	.
16BB-X\JJ	.	.	.	.	.	.	.	.	.	.	.	.	.	.	.	.	.	16B-X\JJyy	.	.	.	.	.	.	.	.	.
=62	=62	=62	=62	=62	=62	=62	=62	=62	=62	=62	=62	=62	=62	=62	=62	=62	=62	=62	=62	=62	=62	=62	=62	=62	=62	=62	=62
*	*	*	*	*	*	*	*	*	*	*	*	*	*	*	*	*	*	*	*	*	*	*^	*	*	*	*	*
8AA\L)	.	4.ryy	.	8d\L	.	8f#/L 8A/	.	8r	.	8ryy	.	4.r	.	4.r	.	4.r	.	8A\L)yy	.	4.r	.	8r	4.re	.	8r	.	8r	.
8DD\J	.	.	.	8d\J	.	8f#/J 8A/	.	8r	.	8ryy	.	.	.	.	.	.	.	8D\Jyy	.	.	.	8r	.	.	8r	.	8r	.
8r	.	.	.	8r	.	8r	.	(<16g#X/LL	.	(<16g#X/LLyy	.	.	.	.	.	.	.	8ryy	.	.	.	(16g#/LL	.	.	(16gg#X\LL	.	(16gg#X\LL	.
.	.	.	.	.	.	.	.	16a/JJ	.	16a/JJyy	.	.	.	.	.	.	.	.	.	.	.	16a/JJ	.	.	16aa\JJ	.	16aa\JJ	.
=63	=63	=63	=63	=63	=63	=63	=63	=63	=63	=63	=63	=63	=63	=63	=63	=63	=63	=63	=63	=63	=63	=63	=63	=63	=63	=63	=63	=63
!!LO:PB:g=original
!	!	!	!	!	!	!	!	!LO:TX:t=P:problem:zakończenie łuku na górze	!	!LO:TX:t=P:problem:zakończenie łuku na górze	!	!	!	!	!	!	!	!	!	!	!	!	!	!	!	!	!LO:TX:t=P:problem:brak zakończenia łuku	!
8DD\L	.	8D\Lyy	.	8d\L	.	8f#/L 8A/	.	8dd\L)	.	8dd\L)yy	.	4.r	.	4.r	.	8r	.	8F#\L	.	8d/L 8A/	.	8dd\L 8f#\)	4ryy	.	8ff#\L)	.	8ddd\L)	.
8DD\J	.	8D\Jyy	.	8d\J	.	8f#/J 8A/	.	8dd'\J	<	8dd'\Jyy	<	.	.	.	.	8r	.	8F#\J	.	8d/J 8A/	.	8dd\J 8f#'\	.	.	8ff#'\J	.	8ddd'\J	<
.	.	.	.	.	.	.	.	.	.	.	.	.	.	.	.	.	<	.	.	.	.	.	.	.	.	.	.	.
8r	.	8ryy	.	8r	.	(8a/	.	(8a/	[	(<8a/yy	[	.	.	.	.	(8a/	[[	8r	.	8r	.	(8a/	8a\	.	(8aa\	.	(8aa\	[
.	f	.	f	.	.	.	.	.	.	.	.	.	.	.	f	.	.	.	.	.	.	.	.	.	.	.	.	.
*	*	*	*	*	*	*	*	*	*	*	*	*	*	*	*	*	*	*	*	*	*	*v	*v	*	*	*	*	*
=64	=64	=64	=64	=64	=64	=64	=64	=64	=64	=64	=64	=64	=64	=64	=64	=64	=64	=64	=64	=64	=64	=64	=64	=64	=64	=64	=64
!	!	!	!	!	!	!	!	!	!LO:DY:rj	!	!LO:DY:rj	!	!	!	!	!	!	!	!LO:DY:rj	!	!LO:DY:rj	!	!LO:DY:rj	!	!	!	!LO:DY:rj
8DD\L	.	8D\Lyy	.	8A/L 8D/	.	8f#/L)	.	8dd\L)	f	8dd\L)yy	f	8D\L	.	8D\L	.	8dd\L)	f	8D\L	f	8d/L 8D/	f	8dd\L 8f#\)	f	8ff#\)L	.	8ddd\)L	f
8DD\J	.	8D\Jyy	.	8A/J 8D/	.	8f#'/J	.	8dd'\J	.	8dd'\Jyy	.	8D\J	.	8D\J	.	8dd'\J	.	8d\J	.	8d/J 8D/	.	8dd\J 8f#'\	.	8ff#\'J	.	8ddd\'J	.
8r	.	8ryy	.	8r	.	(16d/LL	.	(16f#/LL	.	(16f#/LLyy	.	8r	.	8r	.	(16f#/LL	.	8r	.	8r	.	(16f#/LL 16d/	.	(16dd\L	.	(16ff#\L	.
.	.	.	.	.	.	16e/JJ	.	16g/JJ	.	16g/JJyy	.	.	.	.	.	16g/JJ	.	.	.	.	.	16g/JJ 16e/	.	16ee\J	.	16gg\J	.
=65	=65	=65	=65	=65	=65	=65	=65	=65	=65	=65	=65	=65	=65	=65	=65	=65	=65	=65	=65	=65	=65	=65	=65	=65	=65	=65	=65
*rep	*	*rep	*	*rep	*	*	*	*	*	*	*	*rep	*	*rep	*	*	*	*rep	*	*	*	*	*	*	*	*	*
8DD\L	.	8D\Lyy	.	8A/L 8D/	.	4f#/)	.	4a/)	.	4a/)yy	.	8D\L	.	8D\L	.	4a/)	.	8D\L	.	8d/L 8D/	.	4a/ 4f#/)	.	4ff#\)	.	4aa\)	.
8DD\J	.	8D\Jyy	.	8A/J 8D/	.	.	.	.	.	.	.	8D\J	.	8D\J	.	.	.	8d\J	.	8d/J 8D/	.	.	.	.	.	.	.
8r	.	8ryy	.	8r	.	8g/	.	8b/	.	8b/yy	.	8r	.	8r	.	8b/	.	8r	.	8r	.	8b/ 8g/	.	8gg\	.	8bb\	.
*Xrep	*	*Xrep	*	*Xrep	*	*	*	*	*	*	*	*Xrep	*	*Xrep	*	*	*	*Xrep	*	*	*	*	*	*	*	*	*
=66	=66	=66	=66	=66	=66	=66	=66	=66	=66	=66	=66	=66	=66	=66	=66	=66	=66	=66	=66	=66	=66	=66	=66	=66	=66	=66	=66
*	*	*	*	*	*	*	*	*	*	*	*	*	*	*tremolo	*	*	*	*	*	*	*	*	*	*	*	*	*
!LO:TX:t=P:problem:mixedbeam	!	!LO:TX:t=P:problem:mixedbeam	!	!	!	!	!	!	!	!	!	!	!	!	!	!	!	!LO:TX:t=P:problem:mixedbeam	!	!	!	!	!	!	!	!	!
8AAA/L	.	8AA/Lyy	.	8A/L	.	16f#/LL	.	(16a/LL	.	(16a/LLyy	.	8r	.	8AA/L	.	(16a/LL	.	8AA/L	.	8r	.	(16a/LL 16f#/	.	(16ff#\L	.	(16aa\L	.
.	.	.	.	.	.	16e/JJ	.	16g/JJ)	.	16g/JJ)yy	.	.	.	.	.	16g/JJ)	.	.	.	.	.	16g/JJ 16e/)	.	16ee\J	.	16gg\J	.
8AA\	.	8A\yy	.	8A/	.	8c#/L	.	8e/L	.	8e/Lyy	.	8r	.	8AA/	.	8e/L	.	8A\	.	8e/L 8A/	.	8e/L 8c#/	.	8cc#\L)	.	8ee\L)	.
8AAA/J	.	8AA/Jyy	.	8e/J 8A/	.	8g/J 8A/	.	8cc#/J	sf	8cc#/Jyy	sf	8AA/	.	8AA/J	.	8cc#/J	.	8AA/J	.	8e/J 8A/	.	8cc#/J 8g/	.	8ee\J	.	8ccc#\J	.
=67	=67	=67	=67	=67	=67	=67	=67	=67	=67	=67	=67	=67	=67	=67	=67	=67	=67	=67	=67	=67	=67	=67	=67	=67	=67	=67	=67
!!LO:TX:t=1ma
*>B1	*	*>B1	*	*>B1	*	*>B1	*	*>B1	*	*>B1	*	*>B1	*	*>B1	*	*>B1	*	*>B1	*	*>B1	*	*>B1	*	*>B1	*	*>B1	*
8DD\	.	8D\yy	.	8d\	.	8f#/ 8A/	.	8dd\	.	8dd\yy	.	8D\	.	8D\	.	8dd\	.	8D\	.	8d/ 8F#/	.	8dd/ 8f#/	.	8dd\	.	8ddd\	.
8r	.	8ryy	.	8r	.	8r	.	8r	.	8ryy	.	8r	.	8r	.	8r	.	8r	.	8r	.	8r	.	8r	.	8r	.
=68:|!	=68:|!	=68:|!	=68:|!	=68:|!	=68:|!	=68:|!	=68:|!	=68:|!	=68:|!	=68:|!	=68:|!	=68:|!	=68:|!	=68:|!	=68:|!	=68:|!	=68:|!	=68:|!	=68:|!	=68:|!	=68:|!	=68:|!	=68:|!	=68:|!	=68:|!	=68:|!	=68:|!
!!LO:TX:t=2
*>B2	*	*>B2	*	*>B2	*	*>B2	*	*>B2	*	*>B2	*	*>B2	*	*>B2	*	*>B2	*	*>B2	*	*>B2	*	*>B2	*	*>B2	*	*>B2	*
*	*	*	*	*	*	*	*	*	*	*	*	*	*	*	*	*	*	*	*	*^	*	*	*	*	*	*	*
*tremolo	*	*tremolo	*	*	*	*	*	*	*	*	*	*tremolo	*	*Xtremolo	*	*	*	*	*	*	*	*	*	*	*	*	*	*
8DD\L	.	8D\Lyy	.	(16d\LL	.	(16f#/LL 16A/	.	(16dd\LL	.	(16dd\LLyy	.	16D\L	.	4.D\	.	4.d/	.	4.D\	.	4.f#/	4.d\	.	4.dd/ 4.f#/	.	(16dd\LL	.	(16ddd\LL	.
.	.	.	.	16f#\JJ)	.	16dd/JJ)	.	16ff#\JJ)	.	16ff#\JJ)yy	.	16D\	.	.	.	.	.	.	.	.	.	.	.	.	16a\JJ)	.	16aa\JJ)	.
*	*	*	*	*tremolo	*	*tremolo	*	*tremolo	*	*tremolo	*	*Xtremolo	*	*	*	*	*	*	*	*	*	*	*	*	*tremolo	*	*tremolo	*
!	!	!	!	!LO:TX:t=P:problem:4 kropki art.	!	!LO:TX:t=P:problem:4 kropki art.	!	!LO:TX:t=P:problem:4 kropki art.	!	!LO:TX:t=P:problem:4 kropki art.	!	!	!	!	!	!	!	!	!	!	!	!	!	!	!	!	!LO:TX:t=P:problem:4 kropki art.	!
8DD\	.	8D\yy	.	16dd'\LL	.	16ff#'\LL	.	16ddd'\LL	.	16ddd'\LLyy	.	8D\J	.	.	.	.	.	.	.	.	.	.	.	.	16ff#\LL	.	16ddd'\LL	.
.	.	.	.	16dd'\	.	16ff#'\	.	16ddd'\	.	16ddd'\yy	.	.	.	.	.	.	.	.	.	.	.	.	.	.	16ff#\	.	16ddd'\	.
8DD\J	.	8D\Jyy	.	16dd'\	.	16ff#'\	.	16ddd'\	.	16ddd'\yy	.	8r	.	.	.	.	.	.	.	.	.	.	.	.	16ff#\	.	16ddd'\	.
.	.	.	.	16dd'\JJ	.	16ff#'\JJ	.	16ddd'\JJ	.	16ddd'\JJyy	.	.	.	.	.	.	.	.	.	.	.	.	.	.	16ff#\JJ	.	16ddd'\JJ	.
=69	=69	=69	=69	=69	=69	=69	=69	=69	=69	=69	=69	=69	=69	=69	=69	=69	=69	=69	=69	=69	=69	=69	=69	=69	=69	=69	=69	=69
*>C	*	*>C	*	*>C	*	*>C	*	*>C	*	*>C	*	*>C	*	*>C	*	*>C	*	*>C	*	*>C	*>C	*	*>C	*	*>C	*	*>C	*
*	*	*	*	*	*	*	*	*	*	*	*	*rep	*	*	*	*	*	*	*	*	*	*	*	*	*	*	*	*
*	*	*	*	*	*	*	*	*	*	*	*	*tremolo	*	*	*	*	*	*	*	*	*	*	*	*	*	*	*rep	*
8BB\L	.	8B\Lyy	.	(16d\LL	.	16f#/LL	.	(16dd\LL	.	(16dd\LLyy	.	16D\L	.	4.BB/	.	4.b\	.	4.B\	.	4.f#/	4.d\	.	4.dd/ 4.f#/	.	(16dd\LL	.	(16ddd\LL	.
.	.	.	.	16f#\JJ)	.	16dd/JJ	.	16ff#\JJ)	.	16ff#\JJ)yy	.	16D\	.	.	.	.	.	.	.	.	.	.	.	.	16ff#\JJ)	.	16aa\JJ)	.
*	*	*	*	*	*	*	*	*	*	*	*	*Xtremolo	*	*	*	*	*	*	*	*	*	*	*	*	*	*	*	*
!	!	!	!	!	!	!	!	!	!	!	!	!	!	!	!	!	!	!	!	!	!	!	!	!	!LO:TX:t=P:problem:4 kropki art.	!	!	!
8BB\	.	8B\yy	.	16dd\LL	.	16ff#\LL	.	16ddd\LL	.	16ddd\LLyy	.	8D\J	.	.	.	.	.	.	.	.	.	.	.	.	16ff#'\LL	.	16ff#d'\LL	.
.	.	.	.	16dd\	.	16ff#\	.	16ddd\	.	16ddd\yy	.	.	.	.	.	.	.	.	.	.	.	.	.	.	16ff#'\	.	16ddd'\	.
8BB\J	.	8B\Jyy	.	16dd\	.	16ff#\	.	16ddd\	.	16ddd\yy	.	8r	.	.	.	.	.	.	.	.	.	.	.	.	16ff#'\	.	16ddd'\	.
.	.	.	.	16dd\JJ	.	16ff#\JJ	.	16ddd\JJ	.	16ddd\JJyy	.	.	.	.	.	.	.	.	.	.	.	.	.	.	16ff#'\JJ	.	16ddd'\JJ	.
*	*	*	*	*	*	*	*	*	*	*	*	*Xrep	*	*	*	*	*	*	*	*	*	*	*	*	*	*	*Xrep	*
=70	=70	=70	=70	=70	=70	=70	=70	=70	=70	=70	=70	=70	=70	=70	=70	=70	=70	=70	=70	=70	=70	=70	=70	=70	=70	=70	=70	=70
!!LO:PB:g=original
!	!	!	!	!	!	!	!	!	!	!	!	!	!	!	!	!	!	!	!	!	!	!	!	!	!	!	!LO:TX:t=P:problem:4 kropki art.	!
8GG\L	.	8G\Lyy	.	(16g\LL	.	(16ee\LL	.	(16gg\LL	.	4.ryy	.	4.r	.	4.GG/	.	4.g/	.	4.G\	.	4.g/	4.e\	.	4.ee\ 4.b\	.	(16ee\LL	.	(16ggg\LL	.
.	.	.	.	16b\JJ)	.	16gg\JJ)	.	16bb\JJ)	.	.	.	.	.	.	.	.	.	.	.	.	.	.	.	.	16gg\JJ)	.	16bb\JJ)	.
!	!	!	!	!	!	!LO:TX:t=P:problem:4 kropki art.	!	!LO:TX:t=P:problem:4 kropki art.	!	!	!	!	!	!	!	!	!	!	!	!	!	!	!	!	!	!	!	!
8GG\	.	8G\yy	.	16b\LL	.	16gg'\LL	.	16eee'\LL	.	.	.	.	.	.	.	.	.	.	.	.	.	.	.	.	16gg\LL	.	16eee'\LL	.
.	.	.	.	16b\	.	16gg'\	.	16eee'\	.	.	.	.	.	.	.	.	.	.	.	.	.	.	.	.	16gg\	.	16eee'\	.
8GG\J	.	8G\Jyy	.	16b\	.	16gg'\	.	16eee'\	.	.	.	.	.	.	.	.	.	.	.	.	.	.	.	.	16gg\	.	16eee'\	.
.	.	.	.	16b\JJ	.	16gg'\JJ	.	16eee'\JJ	.	.	.	.	.	.	.	.	.	.	.	.	.	.	.	.	16gg\JJ	.	16eee'\JJ	.
*	*	*	*	*	*	*	*	*	*	*	*	*	*	*	*	*	*	*	*	*v	*v	*	*	*	*	*	*	*
*Xtremolo	*	*Xtremolo	*	*	*	*	*	*	*	*	*	*	*	*	*	*	*	*	*	*	*	*	*	*Xtremolo	*	*Xtremolo	*
=71	=71	=71	=71	=71	=71	=71	=71	=71	=71	=71	=71	=71	=71	=71	=71	=71	=71	=71	=71	=71	=71	=71	=71	=71	=71	=71	=71
*	*	*	*	*	*	*	*	*	*	*	*	*	*	*	*	*	*	*	*	*	*	*^	*	*	*	*	*
!LO:TX:t=P:problem:mixedbeam	!	!LO:TX:t=P:problem:mixedbeam	!	!	!	!LO:TX:t=P:problem:mixedbeam	!	!	!	!	!	!	!	!	!	!	!	!	!	!	!	!	!	!	!	!	!	!
8AA\L	.	8A\Lyy	.	(16a\LL	.	16ff#\LL	.	(16ddd\LL	.	4.ryy	.	8D/L	.	8AA/L	.	8a/L	.	8A\L	.	8f#\L 8d\	.	16dd/LL	16a\LL	.	16ff#'\LL	.	(16ddd\LL	.
.	.	.	.	16d\JJ)	.	16a/JJ 16f#/	.	16aa\)	.	.	.	.	.	.	.	.	.	.	.	.	.	16a/JJ	16f#\JJ	.	(16ff#\	.	16aa\)	.
8AA\	.	8A\yy	.	16d\LL	.	16a/LL 16f#/	.	(16gg#X\	.	.	.	8D/	.	8AA/	.	8a/	.	8A\	.	8f#\ 8d\	.	(16g#/LL 16e#X/	4ryy	.	16ee#X\	.	(16gg#X\	.
.	.	.	.	16d\	.	16a/ 16f#/	.	16aa\	.	.	.	.	.	.	.	.	.	.	.	.	.	16a/ 16f#/	.	.	16ff#\	.	16aa\	.
8AAA/J	.	8AA/Jyy	.	16e\ 16c#\	.	16a/ 16g/	.	16ggn\	.	.	.	8AA/J	.	8AA/J	.	8g/J	.	8c#\J	.	8e\J 8A\	.	16gX/ 16e/	.	.	16een\	.	16ggn\	.
.	.	.	.	16e\JJ 16c#\	.	16a/JJ 16g/	.	16ee\JJ)	.	.	.	.	.	.	.	.	.	.	.	.	.	16e/JJ 16c#/)	.	.	16cc#\JJ)	.	16ee\JJ)	.
*	*	*	*	*	*	*	*	*	*	*	*	*	*	*	*	*	*	*	*	*	*	*v	*v	*	*	*	*	*
=72	=72	=72	=72	=72	=72	=72	=72	=72	=72	=72	=72	=72	=72	=72	=72	=72	=72	=72	=72	=72	=72	=72	=72	=72	=72	=72	=72
!	!	!	!	!	!	!	!	!	!	!	!	!	!	!	!	!	!	!	!	!	!	!	!	!	!	!LO:TX:a:t=1.	!
4.ryy	.	4.ryy	.	4.ryy	.	4.ryy	.	(16dd\LL	.	4.ryy	.	4.ryy	.	4.ryy	.	4.ryy	.	4.ryy	.	4.ryy	.	4.ryy	.	4.ryy	.	4.ryy	.
.	.	.	.	.	.	.	.	16ff#\JJ)	.	.	.	.	.	.	.	.	.	.	.	.	.	.	.	.	.	.	.
!	!	!	!	!	!	!	!	!LO:TX:t=P:problem:4 kropki art.	!	!	!	!	!	!	!	!	!	!	!	!	!	!	!	!	!	!	!
.	.	.	.	.	.	.	.	16ddd'\LL	.	.	.	.	.	.	.	.	.	.	.	.	.	.	.	.	.	.	.
.	.	.	.	.	.	.	.	16ddd'\	.	.	.	.	.	.	.	.	.	.	.	.	.	.	.	.	.	.	.
.	.	.	.	.	.	.	.	16ddd'\	.	.	.	.	.	.	.	.	.	.	.	.	.	.	.	.	.	.	.
.	.	.	.	.	.	.	.	16ddd'\JJ	.	.	.	.	.	.	.	.	.	.	.	.	.	.	.	.	.	.	.
=73	=73	=73	=73	=73	=73	=73	=73	=73	=73	=73	=73	=73	=73	=73	=73	=73	=73	=73	=73	=73	=73	=73	=73	=73	=73	=73	=73
!	!	!	!	!	!	!	!	!	!	!	!	!	!	!	!	!	!	!	!	!	!	!	!	!	!	!LO:TX:a:t=2.	!
4.ryy	.	4.ryy	.	4.ryy	.	4.ryy	.	(16dd\LL	.	4.ryy	.	4.ryy	.	4.ryy	.	4.ryy	.	4.ryy	.	4.ryy	.	4.ryy	.	4.ryy	.	4.ryy	.
.	.	.	.	.	.	.	.	16ff#\JJ)	.	.	.	.	.	.	.	.	.	.	.	.	.	.	.	.	.	.	.
.	.	.	.	.	.	.	.	16ddd\LL	.	.	.	.	.	.	.	.	.	.	.	.	.	.	.	.	.	.	.
.	.	.	.	.	.	.	.	16ddd\	.	.	.	.	.	.	.	.	.	.	.	.	.	.	.	.	.	.	.
.	.	.	.	.	.	.	.	16ddd\	.	.	.	.	.	.	.	.	.	.	.	.	.	.	.	.	.	.	.
.	.	.	.	.	.	.	.	16ddd\JJ	.	.	.	.	.	.	.	.	.	.	.	.	.	.	.	.	.	.	.
=74	=74	=74	=74	=74	=74	=74	=74	=74	=74	=74	=74	=74	=74	=74	=74	=74	=74	=74	=74	=74	=74	=74	=74	=74	=74	=74	=74
!	!	!	!	!	!	!	!	!	!	!	!	!	!	!	!	!	!	!	!	!	!	!	!	!	!	!LO:TX:a:t=3.	!
4.ryy	.	4.ryy	.	4.ryy	.	4.ryy	.	(16gg\LL	.	4.ryy	.	4.ryy	.	4.ryy	.	4.ryy	.	4.ryy	.	4.ryy	.	4.ryy	.	4.ryy	.	4.ryy	.
.	.	.	.	.	.	.	.	16bb\JJ)	.	.	.	.	.	.	.	.	.	.	.	.	.	.	.	.	.	.	.
.	.	.	.	.	.	.	.	16eee\LL	.	.	.	.	.	.	.	.	.	.	.	.	.	.	.	.	.	.	.
.	.	.	.	.	.	.	.	16eee\	.	.	.	.	.	.	.	.	.	.	.	.	.	.	.	.	.	.	.
.	.	.	.	.	.	.	.	16eee\	.	.	.	.	.	.	.	.	.	.	.	.	.	.	.	.	.	.	.
.	.	.	.	.	.	.	.	16eee\JJ	.	.	.	.	.	.	.	.	.	.	.	.	.	.	.	.	.	.	.
*	*	*	*	*	*	*	*	*Xtremolo	*	*	*	*	*	*	*	*	*	*	*	*	*	*	*	*	*	*	*
=75	=75	=75	=75	=75	=75	=75	=75	=75	=75	=75	=75	=75	=75	=75	=75	=75	=75	=75	=75	=75	=75	=75	=75	=75	=75	=75	=75
!!LO:PB:g=original
!LO:TX:t=P:problem:mixedbeam	!	!LO:TX:t=P:problem:mixedbeam	!	!	!	!LO:TX:t=P:problem:mixedbeam	!	!	!	!	!	!	!	!LO:TX:t=P:problem:mixedbeam	!	!	!	!LO:TX:t=P:problem:mixedbeam	!	!	!	!	!	!	!	!	!
8AA\L	.	8A\Lyy	.	(16a\LL	.	(>16ff#\LL	.	(16ddd\LL	.	4.ryy	.	8D/L	.	8A\L	.	16a'/LL	.	8A'\L	.	8f#\L 8d\	.	(16dd\LL 16f#\	.	(16ff#\LL	.	(16ddd\LL	.
.	.	.	.	16d\JJ)	.	16a/JJ 16f#/)	.	16aa\)	.	.	.	.	.	.	.	(16a/	.	.	.	.	.	16a\ 16f#\)	.	16ff#\	.	16aa)\	.
8AA\	.	8A\yy	.	16d\LL	.	16a/LL 16f#/	.	(16gg#X\	.	.	.	8D/	.	8A\	.	16g#X/	.	8A\	.	8f#\ 8d\	.	16g#\ 16e#X\	.	(16ee#X\)	.	(16gg#X\	.
.	.	.	.	16d\	.	16a/ 16f#/	.	16aa\	.	.	.	.	.	.	.	16a/	.	.	.	.	.	(16a\ 16f#\	.	16ff#\	.	16aa\	.
8AAA/J	.	8AA/Jyy	.	16e\	.	16a/ 16g/	.	16bb\	.	.	.	8AA/J	.	8AA/J	.	16b/	.	8AA/J	.	8e\J 8A\	.	16b\ 16g#\	.	16gg\	.	16bb\	.
.	.	.	.	16e\JJ	.	16a/JJ 16g/	.	16ccc#\JJ)	.	.	.	.	.	.	.	16cc#/JJ)	.	.	.	.	.	16cc#\JJ 16e#\)	.	16ee#\JJ)	.	16ccc#\JJ)	.
*	*	*	*	*Xtremolo	*	*Xtremolo	*	*	*	*	*	*	*	*	*	*	*	*	*	*	*	*	*	*	*	*	*
=76	=76	=76	=76	=76	=76	=76	=76	=76	=76	=76	=76	=76	=76	=76	=76	=76	=76	=76	=76	=76	=76	=76	=76	=76	=76	=76	=76
8DD\	.	8D\yy	.	8d\	.	8a/ 8f#/	.	8ddd\	.	4.ryy	.	8D\	.	8D\	.	8dd\	.	8D\	.	8d/ 8F#/	.	8dd\ 8f#\	.	8ff#\	.	8ddd\	.
8r	.	8ryy	.	8r	.	8r	.	8r	.	.	.	8r	.	8r	.	8r	.	8r	.	8r	.	8r	.	8r	.	8r	.
8r	.	8ryy	.	8r	.	8r	.	8r	.	.	.	8r	.	8r	.	(16b-X\LL	.	16B-X\LL	.	16e/LL 16G/	.	16ee\LL 16cc#\	.	16ccc#\LL	.	16eee\LL	.
.	.	.	.	.	.	.	.	.	.	.	.	.	.	.	.	16a\JJ)	.	16A\JJ	.	16e/JJ 16A/	.	16ee\JJ 16cc#\	.	16ccc#\JJ	.	16eee\JJ	.
=77	=77	=77	=77	=77	=77	=77	=77	=77	=77	=77	=77	=77	=77	=77	=77	=77	=77	=77	=77	=77	=77	=77	=77	=77	=77	=77	=77
8r	.	8ryy	.	8r	.	8r	.	8r	.	4.ryy	.	8r	.	8r	.	8d/	.	8d\	.	8f#\ 8d\	.	8ff#\ 8dd\	.	8ddd\	.	8fff#\	.
8r	.	8ryy	.	8r	.	8r	.	8r	.	.	.	8r	.	8r	.	8r	.	8r	.	8r	.	8r	.	8r	.	8r	.
16AA\LL	.	16A\LLyy	.	16e\LL 16A\	.	16g/LL 16A/	.	16cc#/LL 16e/	.	.	.	16AA/LL	.	16AA/LL	.	16cc#\LL	.	16A\LL	.	16e/LL 16A/	.	16ee\LL 16cc#\	.	16gg\LL	.	16ccc#\LL	.
16AA\JJ	.	16A\JJyy	.	16e\JJ 16A\	.	16g/JJ 16A/	.	16cc#/JJ 16e/	.	.	.	16AA/JJ	.	16AA/JJ	.	16cc#\JJ	.	16A\JJ	.	16e/JJ 16A/	.	16ee\JJ 16cc#\	.	16gg\JJ	.	16ccc#\JJ	.
=78	=78	=78	=78	=78	=78	=78	=78	=78	=78	=78	=78	=78	=78	=78	=78	=78	=78	=78	=78	=78	=78	=78	=78	=78	=78	=78	=78
8DD\	.	8D\yy	.	8d\	.	8f#/ 8A/	.	8dd/ 8f#/	.	4.ryy	.	8D/	.	8D/	.	8dd\	.	8D\	.	8d/ 8F#/	.	8ff#\ 8dd\	.	8ff#\	.	8ddd\	.
8r	.	8ryy	.	8r	.	8r	.	8r	.	.	.	8r	.	8r	.	8r	.	8r	.	8r	.	8r	.	8r	.	8r	.
8r	.	8ryy	.	8r	.	8r	.	8r	.	.	.	8r	.	8r	.	16b-X/LL	.	16B-X\LL	.	16e/LL 16G/	.	16ee\LL 16cc#\	.	16ccc#\LL	.	16eee\LL	.
.	.	.	.	.	.	.	.	.	.	.	.	.	.	.	.	16a/JJ	.	16A\JJ	.	16e/JJ 16A/	.	16ee\JJ 16cc#\	.	16ccc#\JJ	.	16eee\JJ	.
=79	=79	=79	=79	=79	=79	=79	=79	=79	=79	=79	=79	=79	=79	=79	=79	=79	=79	=79	=79	=79	=79	=79	=79	=79	=79	=79	=79
8r	.	8ryy	.	8r	.	8r	.	8r	.	4.ryy	.	8r	.	8r	.	8dd\	.	8d\	.	8f#\ 8d\	.	8ff#\ 8dd\	.	8ddd\	.	8fff#\	.
8r	.	8ryy	.	8r	.	8r	.	8r	.	.	.	8r	.	8r	.	8r	.	8r	.	8r	.	8r	.	8r	.	8r	.
!	!	!	!	!	!	!	!	!	!	!	!	!	!	!	!	!	!	!LO:TX:t=P:problem:mixedbeam	!	!	!	!	!	!	!	!	!
16AAA/LL	.	16AA/LLyy	.	16g\LL 16A\	.	16ee\LL 16a\	.	16aa\LL 16cc#\	.	.	.	16AA/LL	.	16AA/LL	.	16cc#\LL	.	16A\LL	.	16e/LL 16A/	.	16cc#/LL 16g/	.	16ccc#\LL	.	16fff#\LL	.
16AAA/JJ	.	16AA/JJyy	.	16g\JJ 16A\	.	16ee\JJ 16a\	.	16aa\JJ 16cc#\	.	.	.	16AA/JJ	.	16AA/JJ	.	16cc#\JJ	.	16AA/JJ	.	16e/JJ 16A/	.	16cc#/JJ 16g/	.	16ccc#\JJ	.	16fff#\JJ	.
=80	=80	=80	=80	=80	=80	=80	=80	=80	=80	=80	=80	=80	=80	=80	=80	=80	=80	=80	=80	=80	=80	=80	=80	=80	=80	=80	=80
8DD\	.	8D\yy	.	8f#\ 8A\	.	8dd\	.	8dd\	.	4.ryy	.	8D/	.	8D\	.	8dd\	.	8D\	.	8d/ 8F#/	.	8dd/ 8f#/	.	8ddd\	.	8ddd\	.
8r	.	8ryy	.	8r	.	8r	.	8r	.	.	.	8r	.	8r	.	8r	.	8r	.	8r	.	8r	.	8r	.	8r	.
8r	.	8ryy	.	8r	.	8r	.	8r	.	.	.	8r	.	8r	.	8r	.	8r	.	8r	.	8r	.	8r	.	8r	.
=81	=81	=81	=81	=81	=81	=81	=81	=81	=81	=81	=81	=81	=81	=81	=81	=81	=81	=81	=81	=81	=81	=81	=81	=81	=81	=81	=81
!LO:TX:b:i:t=sec.	!	!	!	!	!	!	!	!	!	!	!	!	!	!	!	!	!	!	!	!	!	!	!	!	!	!	!
8D\ 8DD\	.	8dyy\ 8D\yy	.	8f#\ 8A\ 8D\	.	8ff#\ 8a\ 8d\	.	8ddd\ 8dd\	.	4.ryy	.	8D/	.	8D\	.	8dd\	.	8D\	.	8d/ 8F#/	.	8dd\ 8f#\	.	8ddd\	.	8ddd\	.
8r	.	8ryy	.	8r	.	8r	.	8r	.	.	.	8r	.	8r	.	8r	.	8r	.	8r	.	8r	.	8r	.	8r	.
8r;	.	8r;yy	.	8r;	.	8r;	.	8r;	.	.	.	8r;	.	8r;	.	8r;	.	8r;	.	8r;	.	8r;	.	8r;	.	8r;	.
==	==	==	==	==	==	==	==	==	==	==	==	==	==	==	==	==	==	==	==	==	==	==	==	==	==	==	==
*-	*-	*-	*-	*-	*-	*-	*-	*-	*-	*-	*-	*-	*-	*-	*-	*-	*-	*-	*-	*-	*-	*-	*-	*-	*-	*-	*-
!!!ENC:Anastazja Marusiak
!!!END:2021-04-27
!!!RDF**kern: > = above
!!!RDF**kern: < = below
!!!RDF**kern: | = vertical stroke
!!!EED: Andrzej Borzym
!!!EST: 2021-05-13
